(Designed by Robyn and Jose Giraldez)
(Exported by FreeCAD)
(Post Processor: linuxcnc_post)
(Output Time:2018-07-31 21:22:34.547000)
(begin preamble)
G17 G54 G40 G49 G80 G90
G21
(begin operation: T3: Robynbit)
(machine: not set, mm/min)
(T3: Robynbit)
M6 T3
M3 S0
(finish operation: T3: Robynbit)
(begin operation: Profile_Edges)
(machine: not set, mm/min)
(Profile_Edges)
(Compensated Tool Path. Diameter: 6.35)
G0 Z1.270
G0 X48.729 Y316.051
G1 X48.729 Y316.051 Z-5.080 F762.000
G2 X47.168 Y310.161 Z-5.080 I-75.404 J16.825 F1524.000
G2 X38.313 Y283.205 Z-5.080 I-554.399 J167.190 F1524.000
G3 X25.856 Y248.041 Z-5.080 I3170.537 J-1143.008 F1524.000
G3 X6.200 Y191.647 Z-5.080 I29106.689 J-10176.702 F1524.000
G2 X-4.162 Y161.972 Z-5.080 I-3693.420 J1272.965 F1524.000
G3 X-5.834 Y156.358 Z-5.080 I38.963 J-14.661 F1524.000
G3 X-6.024 Y152.800 Z-5.080 I9.722 J-2.303 F1524.000
G3 X-3.652 Y149.404 Z-5.080 I4.386 J0.537 F1524.000
G3 X0.302 Y149.407 Z-5.080 I1.974 J4.419 F1524.000
G3 X2.714 Y151.029 Z-5.080 I-1.734 J5.183 F1524.000
G3 X4.140 Y153.510 Z-5.080 I-7.462 J5.938 F1524.000
G3 X5.938 Y158.235 Z-5.080 I-61.815 J26.228 F1524.000
G2 X18.148 Y193.129 Z-5.080 I10314.685 J-3589.671 F1524.000
G2 X36.441 Y245.681 Z-5.080 I4869.997 J-1665.758 F1524.000
G2 X37.853 Y249.480 Z-5.080 I112.017 J-39.480 F1524.000
G2 X40.145 Y254.377 Z-5.080 I30.187 J-11.147 F1524.000
G2 X41.147 Y255.639 Z-5.080 I4.247 J-2.344 F1524.000
G2 X41.295 Y255.655 Z-5.080 I0.081 J-0.061 F1524.000
G2 X43.099 Y254.696 Z-5.080 I-1.911 J-5.770 F1524.000
G2 X42.906 Y253.339 Z-5.080 I-5.811 J0.133 F1524.000
G2 X41.080 Y247.370 Z-5.080 I-55.593 J13.743 F1524.000
G3 X31.268 Y219.817 Z-5.080 I7255.586 J-2599.164 F1524.000
G3 X21.901 Y192.664 Z-5.080 I7360.064 J-2554.465 F1524.000
G2 X9.702 Y157.782 Z-5.080 I-780790.879 J273034.792 F1524.000
G3 X8.273 Y153.235 Z-5.080 I67.565 J-23.734 F1524.000
G3 X8.008 Y149.635 Z-5.080 I7.615 J-2.370 F1524.000
G3 X8.511 Y147.154 Z-5.080 I10.844 J0.909 F1524.000
G3 X12.660 Y144.716 Z-5.080 I3.433 J1.092 F1524.000
G3 X14.972 Y145.874 Z-5.080 I-1.466 J5.814 F1524.000
G3 X17.640 Y148.749 Z-5.080 I-3.111 J5.563 F1524.000
G3 X19.732 Y153.973 Z-5.080 I-46.279 J21.565 F1524.000
G3 X26.990 Y174.775 Z-5.080 I-1628.819 J579.985 F1524.000
G3 X41.284 Y215.892 Z-5.080 I-8047.238 J2820.536 F1524.000
G2 X44.935 Y226.020 Z-5.080 I156.570 J-50.720 F1524.000
G2 X45.591 Y227.367 Z-5.080 I12.604 J-5.308 F1524.000
G2 X47.046 Y228.515 Z-5.080 I1.929 J-0.950 F1524.000
G2 X48.630 Y227.492 Z-5.080 I0.150 J-1.505 F1524.000
G2 X48.592 Y226.546 Z-5.080 I-2.856 J-0.360 F1524.000
G2 X47.934 Y223.591 Z-5.080 I-19.892 J2.883 F1524.000
G2 X44.750 Y213.641 Z-5.080 I-171.253 J49.311 F1524.000
G2 X35.942 Y188.749 Z-5.080 I-1476.704 J508.489 F1524.000
G3 X27.298 Y164.347 Z-5.080 I2359.323 J-849.559 F1524.000
G3 X22.839 Y150.659 Z-5.080 I260.369 J-92.383 F1524.000
G3 X21.754 Y145.946 Z-5.080 I32.869 J-10.048 F1524.000
G3 X21.730 Y143.394 Z-5.080 I8.124 J-1.354 F1524.000
G3 X25.153 Y139.932 Z-5.080 I4.014 J0.546 F1524.000
G3 X29.296 Y141.011 Z-5.080 I0.658 J5.967 F1524.000
G3 X31.253 Y142.808 Z-5.080 I-7.279 J9.891 F1524.000
G3 X33.852 Y145.803 Z-5.080 I-49.944 J45.970 F1524.000
G3 X50.090 Y165.897 Z-5.080 I-1889.681 J1543.628 F1524.000
G3 X60.893 Y179.190 Z-5.080 I-1465.209 J1201.829 F1524.000
G2 X65.358 Y184.613 Z-5.080 I114.493 J-89.719 F1524.000
G2 X67.888 Y187.094 Z-5.080 I13.141 J-10.871 F1524.000
G2 X68.383 Y187.371 Z-5.080 I0.997 J-1.199 F1524.000
G2 X69.944 Y186.766 Z-5.080 I-0.898 J-4.634 F1524.000
G2 X70.406 Y186.251 Z-5.080 I-0.287 J-0.723 F1524.000
G2 X70.115 Y184.771 Z-5.080 I-2.732 J-0.231 F1524.000
G2 X68.360 Y181.810 Z-5.080 I-12.474 J5.396 F1524.000
G2 X54.834 Y165.315 Z-5.080 I-941.609 J758.329 F1524.000
G3 X53.647 Y164.050 Z-5.080 I10.255 J-10.808 F1524.000
G3 X50.057 Y157.557 Z-5.080 I14.092 J-12.032 F1524.000
G3 X49.957 Y154.663 Z-5.080 I5.494 J-1.638 F1524.000
G3 X54.231 Y151.976 Z-5.080 I3.562 J0.923 F1524.000
G2 X56.721 Y152.496 Z-5.080 I19.495 J-87.170 F1524.000
G3 X59.512 Y154.262 Z-5.080 I-1.732 J5.825 F1524.000
G3 X61.304 Y156.276 Z-5.080 I-22.405 J21.741 F1524.000
G3 X71.475 Y168.834 Z-5.080 I-2537.657 J2065.661 F1524.000
G2 X78.170 Y176.489 Z-5.080 I86.927 J-69.271 F1524.000
G2 X80.049 Y178.019 Z-5.080 I6.320 J-5.841 F1524.000
G2 X81.157 Y177.440 Z-5.080 I-2.248 J-5.650 F1524.000
G2 X81.708 Y176.969 Z-5.080 I-0.916 J-1.632 F1524.000
G2 X81.611 Y176.344 Z-5.080 I-1.017 J-0.161 F1524.000
G2 X80.664 Y174.394 Z-5.080 I-7.923 J2.640 F1524.000
G2 X77.529 Y170.130 Z-5.080 I-32.272 J20.443 F1524.000
G1 X68.444 Y159.062 Z-5.080 F1524.000
G1 X65.683 Y155.634 Z-5.080 F1524.000
G3 X62.640 Y151.507 Z-5.080 I37.427 J-30.782 F1524.000
G3 X61.449 Y148.071 Z-5.080 I5.546 J-3.847 F1524.000
G3 X61.438 Y145.865 Z-5.080 I81.060 J-1.490 F1524.000
G3 X64.794 Y142.695 Z-5.080 I3.175 J-0.000 F1524.000
G3 X66.343 Y142.991 Z-5.080 I-1.110 J9.992 F1524.000
G3 X70.114 Y144.788 Z-5.080 I-1.037 J7.032 F1524.000
G3 X73.499 Y148.439 Z-5.080 I-24.123 J25.754 F1524.000
G3 X85.552 Y163.273 Z-5.080 I-1519.726 J1247.224 F1524.000
G2 X90.064 Y167.974 Z-5.080 I29.222 J-23.526 F1524.000
G2 X91.746 Y169.009 Z-5.080 I3.646 J-4.043 F1524.000
G2 X92.994 Y167.195 Z-5.080 I-3.771 J-3.929 F1524.000
G2 X92.275 Y165.676 Z-5.080 I-5.061 J1.465 F1524.000
G2 X87.974 Y159.796 Z-5.080 I-52.466 J33.862 F1524.000
G2 X75.772 Y144.892 Z-5.080 I-750.493 J601.995 F1524.000
G2 X71.896 Y140.643 Z-5.080 I-35.047 J28.075 F1524.000
G2 X67.305 Y138.191 Z-5.080 I-6.409 J6.475 F1524.000
G2 X62.852 Y137.505 Z-5.080 I-7.589 J34.477 F1524.000
G3 X46.671 Y135.692 Z-5.080 I41.927 J-447.302 F1524.000
G3 X43.310 Y135.090 Z-5.080 I6.481 J-45.857 F1524.000
G3 X40.233 Y133.907 Z-5.080 I1.568 J-8.675 F1524.000
G3 X38.824 Y128.647 Z-5.080 I2.157 J-3.397 F1524.000
G3 X40.560 Y126.308 Z-5.080 I7.989 J4.119 F1524.000
G3 X44.577 Y122.581 Z-5.080 I42.171 J41.405 F1524.000
G3 X54.018 Y114.728 Z-5.080 I225.849 J261.937 F1524.000
G2 X86.706 Y88.138 Z-5.080 I-18060.220 J-22235.953 F1524.000
G2 X92.754 Y82.781 Z-5.080 I-49.245 J-61.689 F1524.000
G2 X94.209 Y80.953 Z-5.080 I-5.499 J-5.870 F1524.000
G2 X92.368 Y78.918 Z-5.080 I-9.249 J6.518 F1524.000
G1 X92.318 Y78.935 Z-5.080 F1524.000
G2 X90.798 Y79.751 Z-5.080 I2.857 J7.144 F1524.000
G2 X85.771 Y83.497 Z-5.080 I35.843 J53.344 F1524.000
G2 X64.490 Y100.851 Z-5.080 I2069.727 J2559.698 F1524.000
G3 X55.901 Y107.773 Z-5.080 I-410.349 J-500.453 F1524.000
G3 X52.501 Y110.191 Z-5.080 I-16.669 J-19.840 F1524.000
G3 X49.497 Y110.555 Z-5.080 I-1.927 J-3.317 F1524.000
G3 X46.735 Y108.941 Z-5.080 I1.186 J-5.198 F1524.000
G3 X46.065 Y104.297 Z-5.080 I3.551 J-2.883 F1524.000
G3 X47.703 Y101.578 Z-5.080 I9.020 J3.579 F1524.000
G3 X53.154 Y96.409 Z-5.080 I27.917 J23.981 F1524.000
G2 X64.040 Y87.556 Z-5.080 I-1164.386 J-1442.967 F1524.000
G3 X91.193 Y65.542 Z-5.080 I266306.607 J328450.427 F1524.000
G3 X98.945 Y59.259 Z-5.080 I165.017 J195.647 F1524.000
G2 X102.164 Y56.491 Z-5.080 I-24.387 J-31.623 F1524.000
G2 X103.346 Y55.002 Z-5.080 I-3.514 J-4.005 F1524.000
G2 X102.850 Y54.083 Z-5.080 I-2.934 J0.991 F1524.000
G2 X101.848 Y52.895 Z-5.080 I-3.837 J2.221 F1524.000
G2 X101.292 Y53.057 Z-5.080 I0.325 J2.152 F1524.000
G2 X99.077 Y54.316 Z-5.080 I4.424 J10.365 F1524.000
G2 X93.980 Y58.235 Z-5.080 I41.217 J58.880 F1524.000
G3 X46.778 Y96.748 Z-5.080 I-10209.351 J-12464.355 F1524.000
G3 X42.846 Y98.638 Z-5.080 I-6.035 J-7.520 F1524.000
G3 X39.024 Y98.381 Z-5.080 I-1.539 J-5.668 F1524.000
G3 X36.905 Y95.382 Z-5.080 I1.533 J-3.332 F1524.000
G3 X37.557 Y91.666 Z-5.080 I8.355 J-0.451 F1524.000
G3 X39.296 Y89.110 Z-5.080 I5.493 J1.869 F1524.000
G2 X62.284 Y70.494 Z-5.080 I-34984.625 J-43224.543 F1524.000
G3 X79.844 Y56.183 Z-5.080 I1590.410 J1933.630 F1524.000
G2 X90.216 Y47.764 Z-5.080 I-520.994 J-652.396 F1524.000
G3 X108.815 Y32.652 Z-5.080 I1100.223 J1335.068 F1524.000
G2 X118.582 Y24.331 Z-5.080 I-117.350 J-147.638 F1524.000
G2 X120.877 Y21.718 Z-5.080 I-8.811 J-10.055 F1524.000
G2 X120.269 Y20.836 Z-5.080 I-5.548 J3.171 F1524.000
G2 X119.543 Y20.066 Z-5.080 I-2.108 J1.263 F1524.000
G2 X118.882 Y20.199 Z-5.080 I-0.115 J1.135 F1524.000
G2 X116.404 Y21.537 Z-5.080 I4.286 J10.905 F1524.000
G2 X111.627 Y25.147 Z-5.080 I34.338 J50.395 F1524.000
G1 X89.698 Y43.049 Z-5.080 F1524.000
G3 X39.587 Y83.947 Z-5.080 I-9155.410 J-11166.730 F1524.000
G3 X36.553 Y86.318 Z-5.080 I-50.932 J-62.058 F1524.000
G3 X33.847 Y87.907 Z-5.080 I-7.559 J-9.772 F1524.000
G3 X29.330 Y87.266 Z-5.080 I-1.721 J-4.114 F1524.000
G3 X27.578 Y85.154 Z-5.080 I5.198 J-6.092 F1524.000
G3 X27.569 Y80.908 Z-5.080 I3.642 J-2.131 F1524.000
G3 X29.767 Y78.350 Z-5.080 I8.642 J5.203 F1524.000
G3 X34.162 Y74.662 Z-5.080 I56.132 J62.420 F1524.000
G2 X47.830 Y63.555 Z-5.080 I-491.180 J-618.397 F1524.000
G3 X63.409 Y50.905 Z-5.080 I1001.529 J1217.594 F1524.000
G3 X78.935 Y38.205 Z-5.080 I1554.146 J1884.117 F1524.000
G2 X83.479 Y34.111 Z-5.080 I-25.305 J-32.646 F1524.000
G2 X84.995 Y32.006 Z-5.080 I-6.043 J-5.953 F1524.000
G2 X85.033 Y31.761 Z-5.080 I-0.196 J-0.155 F1524.000
G2 X83.253 Y30.649 Z-5.080 I-3.804 J4.108 F1524.000
G2 X82.803 Y30.535 Z-5.080 I-0.367 J0.503 F1524.000
G2 X80.909 Y31.650 Z-5.080 I3.471 J8.063 F1524.000
G2 X76.029 Y35.453 Z-5.080 I53.242 J73.346 F1524.000
G2 X39.485 Y65.570 Z-5.080 I20702.497 J25157.727 F1524.000
G2 X28.329 Y74.703 Z-5.080 I267.604 J338.249 F1524.000
G3 X26.737 Y76.005 Z-5.080 I-10.802 J-11.585 F1524.000
G3 X22.923 Y77.097 Z-5.080 I-3.274 J-4.228 F1524.000
G3 X19.842 Y75.564 Z-5.080 I0.938 J-5.747 F1524.000
G3 X18.557 Y69.686 Z-5.080 I3.172 J-3.773 F1524.000
G3 X20.858 Y66.870 Z-5.080 I7.102 J3.455 F1524.000
G3 X30.629 Y58.813 Z-5.080 I1139.342 J1371.704 F1524.000
G3 X48.347 Y44.439 Z-5.080 I18859.400 J23228.698 F1524.000
G2 X55.165 Y38.618 Z-5.080 I-107.549 J-132.896 F1524.000
G2 X57.376 Y36.306 Z-5.080 I-10.333 J-12.090 F1524.000
G2 X57.533 Y35.936 Z-5.080 I-0.315 J-0.352 F1524.000
G2 X56.083 Y34.378 Z-5.080 I-2.370 J0.752 F1524.000
G2 X54.684 Y34.771 Z-5.080 I-0.118 J2.268 F1524.000
G2 X52.058 Y36.553 Z-5.080 I11.198 J19.323 F1524.000
G2 X47.111 Y40.503 Z-5.080 I98.587 J128.537 F1524.000
G3 X6.596 Y73.389 Z-5.080 I-1956.732 J-2369.324 F1524.000
G3 X2.409 Y76.498 Z-5.080 I-54.892 J-69.541 F1524.000
G3 X-0.324 Y77.999 Z-5.080 I-7.290 J-10.037 F1524.000
G1 X-2.308 Y78.688 Z-5.080 F1524.000
G3 X-6.095 Y77.266 Z-5.080 I-1.033 J-3.002 F1524.000
G3 X-7.292 Y72.248 Z-5.080 I10.357 J-5.123 F1524.000
G3 X-7.053 Y66.433 Z-5.080 I46.815 J-0.982 F1524.000
G2 X-5.854 Y53.458 Z-5.080 I-1894.081 J-181.560 F1524.000
G2 X-5.751 Y47.701 Z-5.080 I-40.218 J-3.595 F1524.000
G2 X-6.733 Y43.934 Z-5.080 I-9.053 J0.347 F1524.000
G2 X-8.933 Y40.817 Z-5.080 I-16.671 J9.431 F1524.000
G1 X-15.978 Y32.176 Z-5.080 F1524.000
G2 X-24.402 Y21.830 Z-5.080 I-420.392 J333.694 F1524.000
G2 X-27.693 Y18.483 Z-5.080 I-20.732 J17.093 F1524.000
G2 X-28.722 Y17.821 Z-5.080 I-3.118 J3.716 F1524.000
G2 X-28.938 Y17.798 Z-5.080 I-0.121 J0.116 F1524.000
G2 X-30.475 Y19.180 Z-5.080 I2.763 J4.618 F1524.000
G2 X-30.236 Y19.935 Z-5.080 I2.683 J-0.435 F1524.000
G2 X-28.011 Y23.597 Z-5.080 I19.449 J-9.309 F1524.000
G2 X-21.790 Y31.574 Z-5.080 I119.767 J-86.981 F1524.000
G2 X-12.881 Y42.261 Z-5.080 I731.377 J-600.657 F1524.000
G3 X-10.753 Y46.424 Z-5.080 I-9.279 J7.369 F1524.000
G3 X-10.380 Y50.003 Z-5.080 I-7.853 J2.628 F1524.000
G3 X-13.026 Y53.087 Z-5.080 I-3.661 J-0.465 F1524.000
G3 X-16.551 Y52.662 Z-5.080 I-1.116 J-5.588 F1524.000
G3 X-19.309 Y50.679 Z-5.080 I4.255 J-8.823 F1524.000
G3 X-23.015 Y46.605 Z-5.080 I38.182 J-38.468 F1524.000
G3 X-30.875 Y36.959 Z-5.080 I316.607 J-265.967 F1524.000
G2 X-37.131 Y29.462 Z-5.080 I-122.214 J95.634 F1524.000
G2 X-38.602 Y28.024 Z-5.080 I-11.741 J10.541 F1524.000
G2 X-40.205 Y27.344 Z-5.080 I-1.626 J1.604 F1524.000
G2 X-41.261 Y30.207 Z-5.080 I0.302 J1.738 F1524.000
G2 X-23.554 Y51.951 Z-5.080 I905.922 J-719.641 F1524.000
G3 X-21.390 Y54.862 Z-5.080 I-12.032 J11.205 F1524.000
G3 X-21.312 Y59.562 Z-5.080 I-4.038 J2.418 F1524.000
G3 X-23.282 Y61.722 Z-5.080 I-6.342 J-3.807 F1524.000
G3 X-27.394 Y62.745 Z-5.080 I-3.055 J-3.502 F1524.000
G3 X-30.014 Y61.087 Z-5.080 I1.586 J-5.404 F1524.000
G3 X-31.699 Y59.064 Z-5.080 I17.029 J-15.899 F1524.000
G1 X-31.699 Y59.064 Z-5.080 F1524.000
G1 X-32.740 Y57.737 Z-5.080 F1524.000
G2 X-47.149 Y39.963 Z-5.080 I-16057.126 J13001.626 F1524.000
G2 X-49.840 Y37.106 Z-5.080 I-14.756 J11.205 F1524.000
G2 X-51.122 Y36.294 Z-5.080 I-3.271 J3.745 F1524.000
G2 X-51.912 Y36.360 Z-5.080 I-0.350 J0.559 F1524.000
G2 X-53.084 Y37.680 Z-5.080 I2.839 J3.702 F1524.000
G2 X-52.883 Y38.209 Z-5.080 I3.467 J-1.016 F1524.000
G2 X-50.228 Y42.398 Z-5.080 I24.007 J-12.280 F1524.000
G2 X-42.290 Y52.531 Z-5.080 I190.192 J-140.817 F1524.000
G2 X-25.091 Y73.357 Z-5.080 I1703.394 J-1389.246 F1524.000
G3 X-18.672 Y81.200 Z-5.080 I-359.744 J300.967 F1524.000
G3 X-16.690 Y83.972 Z-5.080 I-23.555 J18.935 F1524.000
G3 X-15.611 Y86.684 Z-5.080 I-6.466 J4.144 F1524.000
G3 X-15.348 Y89.060 Z-5.080 I-26.202 J4.104 F1524.000
G3 X-18.011 Y92.499 Z-5.080 I-3.160 J0.303 F1524.000
G3 X-19.973 Y92.538 Z-5.080 I-1.229 J-12.442 F1524.000
G3 X-21.583 Y92.365 Z-5.080 I-0.018 J-7.429 F1524.000
G3 X-25.024 Y90.983 Z-5.080 I3.256 J-13.071 F1524.000
G3 X-29.145 Y88.663 Z-5.080 I45.975 J-86.505 F1524.000
G2 X-86.924 Y53.946 Z-5.080 I-603653.705 J1004602.064 F1524.000
G2 X-94.303 Y49.883 Z-5.080 I-48.477 J79.306 F1524.000
G2 X-96.881 Y48.981 Z-5.080 I-4.339 J8.260 F1524.000
G2 X-97.661 Y50.154 Z-5.080 I4.338 J3.734 F1524.000
G2 X-98.037 Y51.024 Z-5.080 I2.789 J1.722 F1524.000
G2 X-97.968 Y51.224 Z-5.080 I0.224 J0.035 F1524.000
G2 X-96.586 Y52.616 Z-5.080 I4.778 J-3.362 F1524.000
G2 X-93.179 Y54.859 Z-5.080 I18.550 J-24.464 F1524.000
G3 X-28.262 Y93.595 Z-5.080 I-14806.112 J24887.157 F1524.000
G3 X-24.638 Y96.236 Z-5.080 I-10.065 J17.617 F1524.000
G3 X-22.560 Y99.369 Z-5.080 I-4.840 J5.468 F1524.000
G3 X-23.701 Y103.719 Z-5.080 I-4.005 J1.274 F1524.000
G3 X-29.154 Y104.886 Z-5.080 I-3.812 J-4.487 F1524.000
G3 X-32.259 Y103.586 Z-5.080 I4.524 J-15.164 F1524.000
G3 X-37.508 Y100.635 Z-5.080 I44.460 J-85.209 F1524.000
G3 X-55.690 Y89.744 Z-5.080 I1062.281 J-1794.115 F1524.000
G3 X-69.645 Y81.362 Z-5.080 I591.311 J-1000.343 F1524.000
G2 X-101.654 Y61.998 Z-5.080 I-7475.115 J12319.578 F1524.000
G2 X-115.658 Y53.575 Z-5.080 I-515.062 J840.574 F1524.000
G2 X-121.544 Y50.222 Z-5.080 I-100.024 J168.740 F1524.000
G2 X-124.506 Y49.752 Z-5.080 I-2.041 J3.293 F1524.000
G2 X-125.442 Y50.970 Z-5.080 I0.262 J1.170 F1524.000
G2 X-124.399 Y52.661 Z-5.080 I2.698 J-0.498 F1524.000
G2 X-122.971 Y53.594 Z-5.080 I19.846 J-28.820 F1524.000
G2 X-113.344 Y59.514 Z-5.080 I320.027 J-509.581 F1524.000
G2 X-43.579 Y101.198 Z-5.080 I9900.446 J-16490.706 F1524.000
G2 X-34.090 Y106.871 Z-5.080 I367.339 J-603.700 F1524.000
G3 X-32.808 Y107.661 Z-5.080 I-3.133 J6.519 F1524.000
G3 X-31.236 Y109.718 Z-5.080 I-4.889 J5.368 F1524.000
G3 X-30.028 Y112.235 Z-5.080 I-28.437 J15.192 F1524.000
G3 X-31.355 Y116.338 Z-5.080 I-2.881 J1.335 F1524.000
G3 X-32.510 Y116.807 Z-5.080 I-3.556 J-7.103 F1524.000
G3 X-34.847 Y117.284 Z-5.080 I-2.527 J-6.419 F1524.000
G3 X-38.264 Y116.500 Z-5.080 I-0.020 J-7.755 F1524.000
G3 X-40.909 Y115.162 Z-5.080 I13.250 J-29.475 F1524.000
G3 X-60.824 Y103.526 Z-5.080 I536.713 J-941.462 F1524.000
G2 X-90.947 Y85.393 Z-5.080 I-3670.894 J6064.023 F1524.000
G2 X-123.576 Y65.765 Z-5.080 I-1948.604 J3202.264 F1524.000
G2 X-141.282 Y55.023 Z-5.080 I-4754.173 J7816.620 F1524.000
G2 X-179.938 Y32.123 Z-5.080 I-1430.378 J2370.449 F1524.000
G2 X-182.926 Y31.177 Z-5.080 I-3.237 J5.035 F1524.000
G2 X-183.910 Y31.626 Z-5.080 I-0.093 J1.100 F1524.000
G2 X-184.359 Y33.778 Z-5.080 I3.049 J1.760 F1524.000
G2 X-183.962 Y34.296 Z-5.080 I1.047 J-0.391 F1524.000
G2 X-181.529 Y36.077 Z-5.080 I9.542 J-10.483 F1524.000
G3 X-91.720 Y89.655 Z-5.080 I-24296.778 J40829.380 F1524.000
G2 X-49.014 Y115.052 Z-5.080 I4140.550 J-6913.865 F1524.000
G3 X-41.669 Y119.329 Z-5.080 I-115.318 J206.490 F1524.000
G3 X-39.230 Y121.215 Z-5.080 I-7.803 J12.611 F1524.000
G3 X-37.279 Y125.321 Z-5.080 I-4.253 J4.538 F1524.000
G3 X-38.044 Y128.935 Z-5.080 I-7.878 J0.219 F1524.000
G3 X-39.627 Y131.936 Z-5.080 I-22.465 J-9.926 F1524.000
G3 X-43.233 Y137.861 Z-5.080 I-493.210 J-296.107 F1524.000
G1 X-53.357 Y154.702 Z-5.080 F1524.000
G3 X-56.699 Y160.118 Z-5.080 I-137.632 J-81.182 F1524.000
G3 X-62.432 Y166.805 Z-5.080 I-26.766 J-17.150 F1524.000
G3 X-66.090 Y169.932 Z-5.080 I-65.034 J-72.354 F1524.000
G2 X-101.743 Y199.036 Z-5.080 I6412.326 J7891.551 F1524.000
G2 X-160.298 Y246.724 Z-5.080 I15394.903 J18963.199 F1524.000
G2 X-163.679 Y249.804 Z-5.080 I20.154 J25.519 F1524.000
G2 X-164.197 Y250.978 Z-5.080 I1.837 J1.512 F1524.000
G2 X-163.456 Y252.762 Z-5.080 I1.524 J0.413 F1524.000
G2 X-161.412 Y252.717 Z-5.080 I0.975 J-2.177 F1524.000
G2 X-160.386 Y252.021 Z-5.080 I-5.491 J-9.193 F1524.000
G2 X-152.322 Y245.656 Z-5.080 I-126.959 J-169.131 F1524.000
G3 X-139.956 Y235.485 Z-5.080 I61611.946 J74897.850 F1524.000
G2 X-87.316 Y192.513 Z-5.080 I-14189.667 J-17435.934 F1524.000
G2 X-67.058 Y175.884 Z-5.080 I-803.113 J-999.035 F1524.000
G3 X-60.838 Y170.972 Z-5.080 I100.547 J120.915 F1524.000
G3 X-56.104 Y168.015 Z-5.080 I18.506 J24.360 F1524.000
G3 X-49.458 Y166.768 Z-5.080 I5.468 J10.808 F1524.000
G3 X-44.358 Y167.826 Z-5.080 I-3.659 J30.462 F1524.000
G2 X-37.616 Y168.793 Z-5.080 I7.037 J-25.068 F1524.000
G2 X-28.622 Y165.886 Z-5.080 I0.198 J-14.754 F1524.000
G2 X-23.434 Y160.516 Z-5.080 I-14.552 J-19.252 F1524.000
G3 X-19.582 Y156.038 Z-5.080 I19.844 J13.177 F1524.000
G3 X-17.020 Y154.273 Z-5.080 I7.416 J8.021 F1524.000
G3 X-11.890 Y155.158 Z-5.080 I1.980 J3.841 F1524.000
G3 X-10.455 Y157.142 Z-5.080 I-5.814 J5.716 F1524.000
G3 X-7.875 Y162.979 Z-5.080 I-42.446 J22.250 F1524.000
G3 X-2.769 Y177.239 Z-5.080 I-382.999 J145.167 F1524.000
G2 X15.882 Y231.154 Z-5.080 I4836.839 J-1643.079 F1524.000
G2 X32.704 Y279.697 Z-5.080 I25376.155 J-8766.280 F1524.000
G3 X43.382 Y310.543 Z-5.080 I-1388.800 J498.065 F1524.000
G2 X44.331 Y313.088 Z-5.080 I31.432 J-10.263 F1524.000
G2 X45.913 Y316.013 Z-5.080 I13.133 J-5.212 F1524.000
G2 X47.048 Y317.077 Z-5.080 I2.467 J-1.496 F1524.000
G2 X47.458 Y316.975 Z-5.080 I0.088 J-0.518 F1524.000
G2 X48.729 Y316.051 Z-5.080 I-2.545 J-4.839 F1524.000
G0 Z1.270
(finish operation: Profile_Edges)
(begin operation: T3: Robynbit)
(machine: not set, mm/min)
(T3: Robynbit)
M6 T3
M3 S0
(finish operation: T3: Robynbit)
(begin operation: Profile_Edges001)
(machine: not set, mm/min)
(Profile_Edges001)
(Compensated Tool Path. Diameter: 6.35)
G0 Z1.270
G0 X-365.125 Y117.475
G1 X-365.125 Y117.475 Z-6.350 F762.000
G1 X-365.125 Y117.475 Z-6.350 F1524.000
G1 X-365.125 Y47.625 Z-6.350 F1524.000
G1 X-377.063 Y47.625 Z-6.350 F1524.000
G1 X-377.063 Y117.475 Z-6.350 F1524.000
G1 X-365.125 Y117.475 Z-6.350 F1524.000
G1 X-365.125 Y117.475 Z-12.700 F762.000
G1 X-365.125 Y117.475 Z-12.700 F1524.000
G1 X-365.125 Y47.625 Z-12.700 F1524.000
G1 X-377.063 Y47.625 Z-12.700 F1524.000
G1 X-377.063 Y117.475 Z-12.700 F1524.000
G1 X-365.125 Y117.475 Z-12.700 F1524.000
G1 X-365.125 Y117.475 Z-19.050 F762.000
G1 X-365.125 Y117.475 Z-19.050 F1524.000
G1 X-365.125 Y47.625 Z-19.050 F1524.000
G1 X-377.063 Y47.625 Z-19.050 F1524.000
G1 X-377.063 Y117.475 Z-19.050 F1524.000
G1 X-365.125 Y117.475 Z-19.050 F1524.000
G1 X-365.125 Y117.475 Z-20.320 F762.000
G1 X-365.125 Y117.475 Z-20.320 F1524.000
G1 X-365.125 Y47.625 Z-20.320 F1524.000
G1 X-377.063 Y47.625 Z-20.320 F1524.000
G1 X-377.063 Y117.475 Z-20.320 F1524.000
G1 X-365.125 Y117.475 Z-20.320 F1524.000
G0 Z1.270
(finish operation: Profile_Edges001)
(begin operation: T3: Robynbit)
(machine: not set, mm/min)
(T3: Robynbit)
M6 T3
M3 S0
(finish operation: T3: Robynbit)
(begin operation: Profile_Edges002)
(machine: not set, mm/min)
(Profile_Edges002)
(Compensated Tool Path. Diameter: 6.35)
G0 Z1.270
G0 X-365.125 Y-34.925
G1 X-365.125 Y-34.925 Z-6.350 F762.000
G1 X-365.125 Y-104.775 Z-6.350 F1524.000
G1 X-377.063 Y-104.775 Z-6.350 F1524.000
G1 X-377.063 Y-34.925 Z-6.350 F1524.000
G1 X-365.125 Y-34.925 Z-6.350 F1524.000
G1 X-365.125 Y-34.925 Z-12.700 F762.000
G1 X-365.125 Y-104.775 Z-12.700 F1524.000
G1 X-377.063 Y-104.775 Z-12.700 F1524.000
G1 X-377.063 Y-34.925 Z-12.700 F1524.000
G1 X-365.125 Y-34.925 Z-12.700 F1524.000
G1 X-365.125 Y-34.925 Z-19.050 F762.000
G1 X-365.125 Y-104.775 Z-19.050 F1524.000
G1 X-377.063 Y-104.775 Z-19.050 F1524.000
G1 X-377.063 Y-34.925 Z-19.050 F1524.000
G1 X-365.125 Y-34.925 Z-19.050 F1524.000
G1 X-365.125 Y-34.925 Z-20.320 F762.000
G1 X-365.125 Y-104.775 Z-20.320 F1524.000
G1 X-377.063 Y-104.775 Z-20.320 F1524.000
G1 X-377.063 Y-34.925 Z-20.320 F1524.000
G1 X-365.125 Y-34.925 Z-20.320 F1524.000
G0 Z1.270
(finish operation: Profile_Edges002)
(begin operation: T3: Robynbit)
(machine: not set, mm/min)
(T3: Robynbit)
M6 T3
M3 S0
(finish operation: T3: Robynbit)
(begin operation: Profile_Edges003)
(machine: not set, mm/min)
(Profile_Edges003)
(Compensated Tool Path. Diameter: 6.35)
G0 Z1.270
G0 X-365.125 Y-187.325
G1 X-365.125 Y-187.325 Z-6.350 F762.000
G1 X-365.125 Y-257.175 Z-6.350 F1524.000
G1 X-377.063 Y-257.175 Z-6.350 F1524.000
G1 X-377.063 Y-187.325 Z-6.350 F1524.000
G1 X-365.125 Y-187.325 Z-6.350 F1524.000
G1 X-365.125 Y-187.325 Z-12.700 F762.000
G1 X-365.125 Y-257.175 Z-12.700 F1524.000
G1 X-377.063 Y-257.175 Z-12.700 F1524.000
G1 X-377.063 Y-187.325 Z-12.700 F1524.000
G1 X-365.125 Y-187.325 Z-12.700 F1524.000
G1 X-365.125 Y-187.325 Z-19.050 F762.000
G1 X-365.125 Y-257.175 Z-19.050 F1524.000
G1 X-377.063 Y-257.175 Z-19.050 F1524.000
G1 X-377.063 Y-187.325 Z-19.050 F1524.000
G1 X-365.125 Y-187.325 Z-19.050 F1524.000
G1 X-365.125 Y-187.325 Z-20.320 F762.000
G1 X-365.125 Y-257.175 Z-20.320 F1524.000
G1 X-377.063 Y-257.175 Z-20.320 F1524.000
G1 X-377.063 Y-187.325 Z-20.320 F1524.000
G1 X-365.125 Y-187.325 Z-20.320 F1524.000
G0 Z1.270
(finish operation: Profile_Edges003)
(begin operation: T3: Robynbit)
(machine: not set, mm/min)
(T3: Robynbit)
M6 T3
M3 S0
(finish operation: T3: Robynbit)
(begin operation: Profile_Edges004)
(machine: not set, mm/min)
(Profile_Edges004)
(Compensated Tool Path. Diameter: 6.35)
G0 Z1.270
G0 X377.063 Y117.475
G1 X377.063 Y117.475 Z-6.350 F762.000
G1 X377.063 Y47.625 Z-6.350 F1524.000
G1 X365.125 Y47.625 Z-6.350 F1524.000
G1 X365.125 Y117.475 Z-6.350 F1524.000
G1 X377.063 Y117.475 Z-6.350 F1524.000
G1 X377.063 Y117.475 Z-12.700 F762.000
G1 X377.063 Y47.625 Z-12.700 F1524.000
G1 X365.125 Y47.625 Z-12.700 F1524.000
G1 X365.125 Y117.475 Z-12.700 F1524.000
G1 X377.063 Y117.475 Z-12.700 F1524.000
G1 X377.063 Y117.475 Z-19.050 F762.000
G1 X377.063 Y47.625 Z-19.050 F1524.000
G1 X365.125 Y47.625 Z-19.050 F1524.000
G1 X365.125 Y117.475 Z-19.050 F1524.000
G1 X377.063 Y117.475 Z-19.050 F1524.000
G1 X377.063 Y117.475 Z-20.320 F762.000
G1 X377.063 Y47.625 Z-20.320 F1524.000
G1 X365.125 Y47.625 Z-20.320 F1524.000
G1 X365.125 Y117.475 Z-20.320 F1524.000
G1 X377.063 Y117.475 Z-20.320 F1524.000
G0 Z1.270
(finish operation: Profile_Edges004)
(begin operation: T3: Robynbit)
(machine: not set, mm/min)
(T3: Robynbit)
M6 T3
M3 S0
(finish operation: T3: Robynbit)
(begin operation: Profile_Edges005)
(machine: not set, mm/min)
(Profile_Edges005)
(Compensated Tool Path. Diameter: 6.35)
G0 Z1.270
G0 X377.063 Y-34.925
G1 X377.063 Y-34.925 Z-6.350 F762.000
G1 X377.063 Y-104.775 Z-6.350 F1524.000
G1 X365.125 Y-104.775 Z-6.350 F1524.000
G1 X365.125 Y-34.925 Z-6.350 F1524.000
G1 X377.063 Y-34.925 Z-6.350 F1524.000
G1 X377.063 Y-34.925 Z-12.700 F762.000
G1 X377.063 Y-104.775 Z-12.700 F1524.000
G1 X365.125 Y-104.775 Z-12.700 F1524.000
G1 X365.125 Y-34.925 Z-12.700 F1524.000
G1 X377.063 Y-34.925 Z-12.700 F1524.000
G1 X377.063 Y-34.925 Z-19.050 F762.000
G1 X377.063 Y-104.775 Z-19.050 F1524.000
G1 X365.125 Y-104.775 Z-19.050 F1524.000
G1 X365.125 Y-34.925 Z-19.050 F1524.000
G1 X377.063 Y-34.925 Z-19.050 F1524.000
G1 X377.063 Y-34.925 Z-20.320 F762.000
G1 X377.063 Y-104.775 Z-20.320 F1524.000
G1 X365.125 Y-104.775 Z-20.320 F1524.000
G1 X365.125 Y-34.925 Z-20.320 F1524.000
G1 X377.063 Y-34.925 Z-20.320 F1524.000
G0 Z1.270
(finish operation: Profile_Edges005)
(begin operation: T3: Robynbit)
(machine: not set, mm/min)
(T3: Robynbit)
M6 T3
M3 S0
(finish operation: T3: Robynbit)
(begin operation: Profile_Edges006)
(machine: not set, mm/min)
(Profile_Edges006)
(Compensated Tool Path. Diameter: 6.35)
G0 Z1.270
G0 X377.063 Y-187.325
G1 X377.063 Y-187.325 Z-6.350 F762.000
G1 X377.063 Y-257.175 Z-6.350 F1524.000
G1 X365.125 Y-257.175 Z-6.350 F1524.000
G1 X365.125 Y-187.325 Z-6.350 F1524.000
G1 X377.063 Y-187.325 Z-6.350 F1524.000
G1 X377.063 Y-187.325 Z-12.700 F762.000
G1 X377.063 Y-257.175 Z-12.700 F1524.000
G1 X365.125 Y-257.175 Z-12.700 F1524.000
G1 X365.125 Y-187.325 Z-12.700 F1524.000
G1 X377.063 Y-187.325 Z-12.700 F1524.000
G1 X377.063 Y-187.325 Z-19.050 F762.000
G1 X377.063 Y-257.175 Z-19.050 F1524.000
G1 X365.125 Y-257.175 Z-19.050 F1524.000
G1 X365.125 Y-187.325 Z-19.050 F1524.000
G1 X377.063 Y-187.325 Z-19.050 F1524.000
G1 X377.063 Y-187.325 Z-20.320 F762.000
G1 X377.063 Y-257.175 Z-20.320 F1524.000
G1 X365.125 Y-257.175 Z-20.320 F1524.000
G1 X365.125 Y-187.325 Z-20.320 F1524.000
G1 X377.063 Y-187.325 Z-20.320 F1524.000
G0 Z1.270
(finish operation: Profile_Edges006)
(begin operation: T3: Robynbit)
(machine: not set, mm/min)
(T3: Robynbit)
M6 T3
M3 S0
(finish operation: T3: Robynbit)
(begin operation: Contour)
(machine: not set, mm/min)
(Contour)
(Compensated Tool Path. Diameter: 6.35)
G0 Z1.270
G0 X372.350 Y264.400
G1 X372.350 Y264.400 Z-6.350 F762.000
G2 X447.675 Y82.578 Z-6.350 I-181.850 J-181.850 F1524.000
G1 X447.675 Y-311.150 Z-6.350 F1524.000
G2 X419.189 Y-339.724 Z-6.350 I-28.576 J0.002 F1524.000
G1 X337.332 Y-339.725 Z-6.350 F1524.000
G2 X309.632 Y-318.165 Z-6.350 I0.002 J28.576 F1524.000
G1 X262.274 Y-128.737 Z-6.350 F1524.000
G3 X142.122 Y-34.925 Z-6.350 I-120.133 J-30.014 F1524.000
G1 X-142.122 Y-34.925 Z-6.350 F1524.000
G3 X-262.274 Y-128.737 Z-6.350 I-0.019 J-123.826 F1524.000
G1 X-309.610 Y-318.080 Z-6.350 F1524.000
G2 X-337.244 Y-339.724 Z-6.350 I-27.723 J6.933 F1524.000
G1 X-419.100 Y-339.725 Z-6.350 F1524.000
G2 X-447.674 Y-311.239 Z-6.350 I0.002 J28.576 F1524.000
G1 X-447.675 Y82.550 Z-6.350 F1524.000
G2 X-190.528 Y339.725 Z-6.350 I257.175 J-0.000 F1524.000
G1 X190.500 Y339.725 Z-6.350 F1524.000
G2 X372.350 Y264.400 Z-6.350 I-0.000 J-257.175 F1524.000
G1 X372.350 Y264.400 Z-12.700 F762.000
G2 X447.675 Y82.578 Z-12.700 I-181.850 J-181.850 F1524.000
G1 X447.675 Y-311.150 Z-12.700 F1524.000
G2 X419.189 Y-339.724 Z-12.700 I-28.576 J0.002 F1524.000
G1 X337.332 Y-339.725 Z-12.700 F1524.000
G2 X309.632 Y-318.165 Z-12.700 I0.002 J28.576 F1524.000
G1 X262.274 Y-128.737 Z-12.700 F1524.000
G3 X142.122 Y-34.925 Z-12.700 I-120.133 J-30.014 F1524.000
G1 X-142.122 Y-34.925 Z-12.700 F1524.000
G3 X-262.274 Y-128.737 Z-12.700 I-0.019 J-123.826 F1524.000
G1 X-309.610 Y-318.080 Z-12.700 F1524.000
G2 X-337.244 Y-339.724 Z-12.700 I-27.723 J6.933 F1524.000
G1 X-419.100 Y-339.725 Z-12.700 F1524.000
G2 X-447.674 Y-311.239 Z-12.700 I0.002 J28.576 F1524.000
G1 X-447.675 Y82.550 Z-12.700 F1524.000
G2 X-190.528 Y339.725 Z-12.700 I257.175 J-0.000 F1524.000
G1 X190.500 Y339.725 Z-12.700 F1524.000
G2 X372.350 Y264.400 Z-12.700 I-0.000 J-257.175 F1524.000
G1 X372.350 Y264.400 Z-19.050 F762.000
G2 X447.675 Y82.578 Z-19.050 I-181.850 J-181.850 F1524.000
G1 X447.675 Y-311.150 Z-19.050 F1524.000
G2 X419.189 Y-339.724 Z-19.050 I-28.576 J0.002 F1524.000
G1 X337.332 Y-339.725 Z-19.050 F1524.000
G2 X309.632 Y-318.165 Z-19.050 I0.002 J28.576 F1524.000
G1 X262.274 Y-128.737 Z-19.050 F1524.000
G3 X142.122 Y-34.925 Z-19.050 I-120.133 J-30.014 F1524.000
G1 X-142.122 Y-34.925 Z-19.050 F1524.000
G3 X-262.274 Y-128.737 Z-19.050 I-0.019 J-123.826 F1524.000
G1 X-309.610 Y-318.080 Z-19.050 F1524.000
G2 X-337.244 Y-339.724 Z-19.050 I-27.723 J6.933 F1524.000
G1 X-419.100 Y-339.725 Z-19.050 F1524.000
G2 X-447.674 Y-311.239 Z-19.050 I0.002 J28.576 F1524.000
G1 X-447.675 Y82.550 Z-19.050 F1524.000
G2 X-190.528 Y339.725 Z-19.050 I257.175 J-0.000 F1524.000
G1 X190.500 Y339.725 Z-19.050 F1524.000
G2 X372.350 Y264.400 Z-19.050 I-0.000 J-257.175 F1524.000
G1 X372.350 Y264.400 Z-20.320 F762.000
G2 X447.675 Y82.578 Z-20.320 I-181.850 J-181.850 F1524.000
G1 X447.675 Y-311.150 Z-20.320 F1524.000
G2 X419.189 Y-339.724 Z-20.320 I-28.576 J0.002 F1524.000
G1 X337.332 Y-339.725 Z-20.320 F1524.000
G2 X309.632 Y-318.165 Z-20.320 I0.002 J28.576 F1524.000
G1 X262.274 Y-128.737 Z-20.320 F1524.000
G3 X142.122 Y-34.925 Z-20.320 I-120.133 J-30.014 F1524.000
G1 X-142.122 Y-34.925 Z-20.320 F1524.000
G3 X-262.274 Y-128.737 Z-20.320 I-0.019 J-123.826 F1524.000
G1 X-309.610 Y-318.080 Z-20.320 F1524.000
G2 X-337.244 Y-339.724 Z-20.320 I-27.723 J6.933 F1524.000
G1 X-419.100 Y-339.725 Z-20.320 F1524.000
G2 X-447.674 Y-311.239 Z-20.320 I0.002 J28.576 F1524.000
G1 X-447.675 Y82.550 Z-20.320 F1524.000
G2 X-190.528 Y339.725 Z-20.320 I257.175 J-0.000 F1524.000
G1 X190.500 Y339.725 Z-20.320 F1524.000
G2 X372.350 Y264.400 Z-20.320 I-0.000 J-257.175 F1524.000
G0 Z1.270
(finish operation: Contour)
(begin postamble)
M05
G17 G54 G90 G80 G40
M2
