(Designed by Robyn and Jose Giraldez)
(Exported by FreeCAD)
(Post Processor: linuxcnc_post)
(Output Time:2018-07-31 21:41:04.233000)
(begin preamble)
G17 G54 G40 G49 G80 G90
G21
(begin operation: T3: Robynbit)
(machine: not set, mm/min)
(T3: Robynbit)
M6 T3
M3 S0
(finish operation: T3: Robynbit)
(begin operation: Profile_Edges)
(machine: not set, mm/min)
(Profile_Edges)
(Compensated Tool Path. Diameter: 6.35)
G0 Z1.270
G0 X15.875 Y-365.125
G1 X15.875 Y-365.125 Z-5.080 F762.000
G1 X15.875 Y-377.063 Z-5.080 F1524.000
G1 X-53.975 Y-377.063 Z-5.080 F1524.000
G1 X-53.975 Y-365.125 Z-5.080 F1524.000
G1 X15.875 Y-365.125 Z-5.080 F1524.000
G1 X15.875 Y-365.125 Z-10.160 F762.000
G1 X15.875 Y-377.063 Z-10.160 F1524.000
G1 X-53.975 Y-377.063 Z-10.160 F1524.000
G1 X-53.975 Y-365.125 Z-10.160 F1524.000
G1 X15.875 Y-365.125 Z-10.160 F1524.000
G1 X15.875 Y-365.125 Z-15.240 F762.000
G1 X15.875 Y-377.063 Z-15.240 F1524.000
G1 X-53.975 Y-377.063 Z-15.240 F1524.000
G1 X-53.975 Y-365.125 Z-15.240 F1524.000
G1 X15.875 Y-365.125 Z-15.240 F1524.000
G1 X15.875 Y-365.125 Z-20.320 F762.000
G1 X15.875 Y-377.063 Z-20.320 F1524.000
G1 X-53.975 Y-377.063 Z-20.320 F1524.000
G1 X-53.975 Y-365.125 Z-20.320 F1524.000
G1 X15.875 Y-365.125 Z-20.320 F1524.000
G0 Z1.270
(finish operation: Profile_Edges)
(begin operation: T3: Robynbit)
(machine: not set, mm/min)
(T3: Robynbit)
M6 T3
M3 S0
(finish operation: T3: Robynbit)
(begin operation: Profile_Edges001)
(machine: not set, mm/min)
(Profile_Edges001)
(Compensated Tool Path. Diameter: 6.35)
G0 Z1.270
G0 X168.275 Y-365.125
G1 X168.275 Y-365.125 Z-5.080 F762.000
G1 X168.275 Y-377.063 Z-5.080 F1524.000
G1 X98.425 Y-377.063 Z-5.080 F1524.000
G1 X98.425 Y-365.125 Z-5.080 F1524.000
G1 X168.275 Y-365.125 Z-5.080 F1524.000
G1 X168.275 Y-365.125 Z-10.160 F762.000
G1 X168.275 Y-377.063 Z-10.160 F1524.000
G1 X98.425 Y-377.063 Z-10.160 F1524.000
G1 X98.425 Y-365.125 Z-10.160 F1524.000
G1 X168.275 Y-365.125 Z-10.160 F1524.000
G1 X168.275 Y-365.125 Z-15.240 F762.000
G1 X168.275 Y-377.063 Z-15.240 F1524.000
G1 X98.425 Y-377.063 Z-15.240 F1524.000
G1 X98.425 Y-365.125 Z-15.240 F1524.000
G1 X168.275 Y-365.125 Z-15.240 F1524.000
G1 X168.275 Y-365.125 Z-20.320 F762.000
G1 X168.275 Y-377.063 Z-20.320 F1524.000
G1 X98.425 Y-377.063 Z-20.320 F1524.000
G1 X98.425 Y-365.125 Z-20.320 F1524.000
G1 X168.275 Y-365.125 Z-20.320 F1524.000
G0 Z1.270
(finish operation: Profile_Edges001)
(begin operation: T3: Robynbit)
(machine: not set, mm/min)
(T3: Robynbit)
M6 T3
M3 S0
(finish operation: T3: Robynbit)
(begin operation: Profile_Edges002)
(machine: not set, mm/min)
(Profile_Edges002)
(Compensated Tool Path. Diameter: 6.35)
G0 Z1.270
G0 X320.675 Y-365.125
G1 X320.675 Y-365.125 Z-5.080 F762.000
G1 X320.675 Y-377.063 Z-5.080 F1524.000
G1 X320.675 Y-377.063 Z-5.080 F1524.000
G1 X250.825 Y-377.063 Z-5.080 F1524.000
G1 X250.825 Y-365.125 Z-5.080 F1524.000
G1 X320.675 Y-365.125 Z-5.080 F1524.000
G1 X320.675 Y-365.125 Z-10.160 F762.000
G1 X320.675 Y-377.063 Z-10.160 F1524.000
G1 X320.675 Y-377.063 Z-10.160 F1524.000
G1 X250.825 Y-377.063 Z-10.160 F1524.000
G1 X250.825 Y-365.125 Z-10.160 F1524.000
G1 X320.675 Y-365.125 Z-10.160 F1524.000
G1 X320.675 Y-365.125 Z-15.240 F762.000
G1 X320.675 Y-377.063 Z-15.240 F1524.000
G1 X320.675 Y-377.063 Z-15.240 F1524.000
G1 X250.825 Y-377.063 Z-15.240 F1524.000
G1 X250.825 Y-365.125 Z-15.240 F1524.000
G1 X320.675 Y-365.125 Z-15.240 F1524.000
G1 X320.675 Y-365.125 Z-20.320 F762.000
G1 X320.675 Y-377.063 Z-20.320 F1524.000
G1 X320.675 Y-377.063 Z-20.320 F1524.000
G1 X250.825 Y-377.063 Z-20.320 F1524.000
G1 X250.825 Y-365.125 Z-20.320 F1524.000
G1 X320.675 Y-365.125 Z-20.320 F1524.000
G0 Z1.270
(finish operation: Profile_Edges002)
(begin operation: T3: Robynbit)
(machine: not set, mm/min)
(T3: Robynbit)
M6 T3
M3 S0
(finish operation: T3: Robynbit)
(begin operation: Profile_Edges003)
(machine: not set, mm/min)
(Profile_Edges003)
(Compensated Tool Path. Diameter: 6.35)
G0 Z1.270
G0 X15.875 Y377.063
G1 X15.875 Y377.063 Z-5.080 F762.000
G1 X15.875 Y365.125 Z-5.080 F1524.000
G1 X-53.975 Y365.125 Z-5.080 F1524.000
G1 X-53.975 Y377.063 Z-5.080 F1524.000
G1 X15.875 Y377.063 Z-5.080 F1524.000
G1 X15.875 Y377.063 Z-10.160 F762.000
G1 X15.875 Y365.125 Z-10.160 F1524.000
G1 X-53.975 Y365.125 Z-10.160 F1524.000
G1 X-53.975 Y377.063 Z-10.160 F1524.000
G1 X15.875 Y377.063 Z-10.160 F1524.000
G1 X15.875 Y377.063 Z-15.240 F762.000
G1 X15.875 Y365.125 Z-15.240 F1524.000
G1 X-53.975 Y365.125 Z-15.240 F1524.000
G1 X-53.975 Y377.063 Z-15.240 F1524.000
G1 X15.875 Y377.063 Z-15.240 F1524.000
G1 X15.875 Y377.063 Z-20.320 F762.000
G1 X15.875 Y365.125 Z-20.320 F1524.000
G1 X-53.975 Y365.125 Z-20.320 F1524.000
G1 X-53.975 Y377.063 Z-20.320 F1524.000
G1 X15.875 Y377.063 Z-20.320 F1524.000
G0 Z1.270
(finish operation: Profile_Edges003)
(begin operation: T3: Robynbit)
(machine: not set, mm/min)
(T3: Robynbit)
M6 T3
M3 S0
(finish operation: T3: Robynbit)
(begin operation: Profile_Edges004)
(machine: not set, mm/min)
(Profile_Edges004)
(Compensated Tool Path. Diameter: 6.35)
G0 Z1.270
G0 X168.275 Y377.063
G1 X168.275 Y377.063 Z-5.080 F762.000
G1 X168.275 Y365.125 Z-5.080 F1524.000
G1 X98.425 Y365.125 Z-5.080 F1524.000
G1 X98.425 Y377.063 Z-5.080 F1524.000
G1 X168.275 Y377.063 Z-5.080 F1524.000
G1 X168.275 Y377.063 Z-10.160 F762.000
G1 X168.275 Y365.125 Z-10.160 F1524.000
G1 X98.425 Y365.125 Z-10.160 F1524.000
G1 X98.425 Y377.063 Z-10.160 F1524.000
G1 X168.275 Y377.063 Z-10.160 F1524.000
G1 X168.275 Y377.063 Z-15.240 F762.000
G1 X168.275 Y365.125 Z-15.240 F1524.000
G1 X98.425 Y365.125 Z-15.240 F1524.000
G1 X98.425 Y377.063 Z-15.240 F1524.000
G1 X168.275 Y377.063 Z-15.240 F1524.000
G1 X168.275 Y377.063 Z-20.320 F762.000
G1 X168.275 Y365.125 Z-20.320 F1524.000
G1 X98.425 Y365.125 Z-20.320 F1524.000
G1 X98.425 Y377.063 Z-20.320 F1524.000
G1 X168.275 Y377.063 Z-20.320 F1524.000
G0 Z1.270
(finish operation: Profile_Edges004)
(begin operation: T3: Robynbit)
(machine: not set, mm/min)
(T3: Robynbit)
M6 T3
M3 S0
(finish operation: T3: Robynbit)
(begin operation: Profile_Edges005)
(machine: not set, mm/min)
(Profile_Edges005)
(Compensated Tool Path. Diameter: 6.35)
G0 Z1.270
G0 X320.675 Y377.063
G1 X320.675 Y377.063 Z-5.080 F762.000
G1 X320.675 Y365.125 Z-5.080 F1524.000
G1 X250.825 Y365.125 Z-5.080 F1524.000
G1 X250.825 Y377.063 Z-5.080 F1524.000
G1 X320.675 Y377.063 Z-5.080 F1524.000
G1 X320.675 Y377.063 Z-10.160 F762.000
G1 X320.675 Y365.125 Z-10.160 F1524.000
G1 X250.825 Y365.125 Z-10.160 F1524.000
G1 X250.825 Y377.063 Z-10.160 F1524.000
G1 X320.675 Y377.063 Z-10.160 F1524.000
G1 X320.675 Y377.063 Z-15.240 F762.000
G1 X320.675 Y365.125 Z-15.240 F1524.000
G1 X250.825 Y365.125 Z-15.240 F1524.000
G1 X250.825 Y377.063 Z-15.240 F1524.000
G1 X320.675 Y377.063 Z-15.240 F1524.000
G1 X320.675 Y377.063 Z-20.320 F762.000
G1 X320.675 Y365.125 Z-20.320 F1524.000
G1 X250.825 Y365.125 Z-20.320 F1524.000
G1 X250.825 Y377.063 Z-20.320 F1524.000
G1 X320.675 Y377.063 Z-20.320 F1524.000
G0 Z1.270
(finish operation: Profile_Edges005)
(begin operation: T3: Robynbit)
(machine: not set, mm/min)
(T3: Robynbit)
M6 T3
M3 S0
(finish operation: T3: Robynbit)
(begin operation: Contour)
(machine: not set, mm/min)
(Contour)
(Compensated Tool Path. Diameter: 6.35)
G0 Z1.270
G0 X394.855 Y439.305
G1 X394.855 Y439.305 Z-5.080 F762.000
G2 X403.224 Y419.189 Z-5.080 I-20.207 J-20.206 F1524.000
G1 X403.225 Y337.332 Z-5.080 F1524.000
G2 X381.665 Y309.632 Z-5.080 I-28.576 J0.002 F1524.000
G1 X192.237 Y262.274 Z-5.080 F1524.000
G3 X98.425 Y142.122 Z-5.080 I30.014 J-120.133 F1524.000
G1 X98.425 Y-142.122 Z-5.080 F1524.000
G3 X192.237 Y-262.274 Z-5.080 I123.826 J-0.019 F1524.000
G1 X381.580 Y-309.610 Z-5.080 F1524.000
G2 X403.224 Y-337.244 Z-5.080 I-6.933 J-27.723 F1524.000
G1 X403.225 Y-419.100 Z-5.080 F1524.000
G2 X374.739 Y-447.674 Z-5.080 I-28.576 J0.002 F1524.000
G1 X-82.550 Y-447.675 Z-5.080 F1524.000
G2 X-211.749 Y-333.409 Z-5.080 I0.000 J130.175 F1524.000
G3 X-273.388 Y-240.860 Z-5.080 I-122.910 J-15.059 F1524.000
G2 X-403.225 Y-17.451 Z-5.080 I127.337 J223.437 F1524.000
G1 X-403.225 Y17.423 Z-5.080 F1524.000
G2 X-273.388 Y240.860 Z-5.080 I257.175 J-0.000 F1524.000
G3 X-211.749 Y333.409 Z-5.080 I-61.271 J107.608 F1524.000
G2 X-82.590 Y447.675 Z-5.080 I129.199 J-15.909 F1524.000
G1 X374.650 Y447.675 Z-5.080 F1524.000
G2 X394.855 Y439.305 Z-5.080 I-0.002 J-28.576 F1524.000
G1 X394.855 Y439.305 Z-10.160 F762.000
G2 X403.224 Y419.189 Z-10.160 I-20.207 J-20.206 F1524.000
G1 X403.225 Y337.332 Z-10.160 F1524.000
G2 X381.665 Y309.632 Z-10.160 I-28.576 J0.002 F1524.000
G1 X192.237 Y262.274 Z-10.160 F1524.000
G3 X98.425 Y142.122 Z-10.160 I30.014 J-120.133 F1524.000
G1 X98.425 Y-142.122 Z-10.160 F1524.000
G3 X192.237 Y-262.274 Z-10.160 I123.826 J-0.019 F1524.000
G1 X381.580 Y-309.610 Z-10.160 F1524.000
G2 X403.224 Y-337.244 Z-10.160 I-6.933 J-27.723 F1524.000
G1 X403.225 Y-419.100 Z-10.160 F1524.000
G2 X374.739 Y-447.674 Z-10.160 I-28.576 J0.002 F1524.000
G1 X-82.550 Y-447.675 Z-10.160 F1524.000
G2 X-211.749 Y-333.409 Z-10.160 I0.000 J130.175 F1524.000
G3 X-273.388 Y-240.860 Z-10.160 I-122.910 J-15.059 F1524.000
G2 X-403.225 Y-17.451 Z-10.160 I127.337 J223.437 F1524.000
G1 X-403.225 Y17.423 Z-10.160 F1524.000
G2 X-273.388 Y240.860 Z-10.160 I257.175 J-0.000 F1524.000
G3 X-211.749 Y333.409 Z-10.160 I-61.271 J107.608 F1524.000
G2 X-82.590 Y447.675 Z-10.160 I129.199 J-15.909 F1524.000
G1 X374.650 Y447.675 Z-10.160 F1524.000
G2 X394.855 Y439.305 Z-10.160 I-0.002 J-28.576 F1524.000
G1 X394.855 Y439.305 Z-15.240 F762.000
G2 X403.224 Y419.189 Z-15.240 I-20.207 J-20.206 F1524.000
G1 X403.225 Y337.332 Z-15.240 F1524.000
G2 X381.665 Y309.632 Z-15.240 I-28.576 J0.002 F1524.000
G1 X192.237 Y262.274 Z-15.240 F1524.000
G3 X98.425 Y142.122 Z-15.240 I30.014 J-120.133 F1524.000
G1 X98.425 Y-142.122 Z-15.240 F1524.000
G3 X192.237 Y-262.274 Z-15.240 I123.826 J-0.019 F1524.000
G1 X381.580 Y-309.610 Z-15.240 F1524.000
G2 X403.224 Y-337.244 Z-15.240 I-6.933 J-27.723 F1524.000
G1 X403.225 Y-419.100 Z-15.240 F1524.000
G2 X374.739 Y-447.674 Z-15.240 I-28.576 J0.002 F1524.000
G1 X-82.550 Y-447.675 Z-15.240 F1524.000
G2 X-211.749 Y-333.409 Z-15.240 I0.000 J130.175 F1524.000
G3 X-273.388 Y-240.860 Z-15.240 I-122.910 J-15.059 F1524.000
G2 X-403.225 Y-17.451 Z-15.240 I127.337 J223.437 F1524.000
G1 X-403.225 Y17.423 Z-15.240 F1524.000
G2 X-273.388 Y240.860 Z-15.240 I257.175 J-0.000 F1524.000
G3 X-211.749 Y333.409 Z-15.240 I-61.271 J107.608 F1524.000
G2 X-82.590 Y447.675 Z-15.240 I129.199 J-15.909 F1524.000
G1 X374.650 Y447.675 Z-15.240 F1524.000
G2 X394.855 Y439.305 Z-15.240 I-0.002 J-28.576 F1524.000
G1 X394.855 Y439.305 Z-20.320 F762.000
G2 X403.224 Y419.189 Z-20.320 I-20.207 J-20.206 F1524.000
G1 X403.225 Y337.332 Z-20.320 F1524.000
G2 X381.665 Y309.632 Z-20.320 I-28.576 J0.002 F1524.000
G1 X192.237 Y262.274 Z-20.320 F1524.000
G3 X98.425 Y142.122 Z-20.320 I30.014 J-120.133 F1524.000
G1 X98.425 Y-142.122 Z-20.320 F1524.000
G3 X192.237 Y-262.274 Z-20.320 I123.826 J-0.019 F1524.000
G1 X381.580 Y-309.610 Z-20.320 F1524.000
G2 X403.224 Y-337.244 Z-20.320 I-6.933 J-27.723 F1524.000
G1 X403.225 Y-419.100 Z-20.320 F1524.000
G2 X374.739 Y-447.674 Z-20.320 I-28.576 J0.002 F1524.000
G1 X-82.550 Y-447.675 Z-20.320 F1524.000
G2 X-211.749 Y-333.409 Z-20.320 I0.000 J130.175 F1524.000
G3 X-273.388 Y-240.860 Z-20.320 I-122.910 J-15.059 F1524.000
G2 X-403.225 Y-17.451 Z-20.320 I127.337 J223.437 F1524.000
G1 X-403.225 Y17.423 Z-20.320 F1524.000
G2 X-273.388 Y240.860 Z-20.320 I257.175 J-0.000 F1524.000
G3 X-211.749 Y333.409 Z-20.320 I-61.271 J107.608 F1524.000
G2 X-82.590 Y447.675 Z-20.320 I129.199 J-15.909 F1524.000
G1 X374.650 Y447.675 Z-20.320 F1524.000
G2 X394.855 Y439.305 Z-20.320 I-0.002 J-28.576 F1524.000
G0 Z1.270
(finish operation: Contour)
(begin postamble)
M05
G17 G54 G90 G80 G40
M2
