(Designed by Robyn and Jose Giraldez)
(Exported by FreeCAD)
(Post Processor: linuxcnc_post)
(Output Time:2018-07-31 21:43:50.214000)
(begin preamble)
G17 G54 G40 G49 G80 G90
G21
(begin operation: T3: Robynbit)
(machine: not set, mm/min)
(T3: Robynbit)
M6 T3
M3 S0
(finish operation: T3: Robynbit)
(begin operation: Profile_Faces)
(machine: not set, mm/min)
(Profile_Faces)
(Compensated Tool Path. Diameter: 6.35)
G0 Z1.270
G0 X389.592 Y688.042
G1 X389.592 Y688.042 Z-2.540 F762.000
G2 X388.055 Y682.709 Z-2.540 I-2.242 J-2.242 F1524.000
G2 X384.259 Y685.095 Z-2.540 I-0.705 J3.091 F1524.000
G2 X386.645 Y688.891 Z-2.540 I3.091 J0.705 F1524.000
G2 X389.592 Y688.042 Z-2.540 I0.705 J-3.091 F1524.000
G0 X389.592 Y688.042 Z1.270
G0 X387.396 Y536.570 Z1.270
G0 X387.396 Y536.570 Z-1.270
G1 X387.396 Y536.570 Z-2.540 F762.000
G2 X388.055 Y530.309 Z-2.540 I-0.046 J-3.170 F1524.000
G2 X384.259 Y532.695 Z-2.540 I-0.705 J3.091 F1524.000
G2 X386.645 Y536.491 Z-2.540 I3.091 J0.705 F1524.000
G2 X387.396 Y536.570 Z-2.540 I0.705 J-3.091 F1524.000
G0 X387.396 Y536.570 Z1.270
G0 X387.351 Y384.170 Z1.270
G0 X387.351 Y384.170 Z-1.270
G1 X387.351 Y384.170 Z-2.540 F762.000
G2 X388.055 Y377.909 Z-2.540 I-0.001 J-3.170 F1524.000
G2 X384.259 Y380.295 Z-2.540 I-0.705 J3.091 F1524.000
G2 X386.645 Y384.091 Z-2.540 I3.091 J0.705 F1524.000
G2 X387.351 Y384.170 Z-2.540 I0.705 J-3.091 F1524.000
G0 X387.351 Y384.170 Z1.270
G0 X387.350 Y231.770 Z1.270
G0 X387.350 Y231.770 Z-1.270
G1 X387.350 Y231.770 Z-2.540 F762.000
G2 X388.055 Y225.509 Z-2.540 I-0.000 J-3.170 F1524.000
G2 X384.259 Y227.895 Z-2.540 I-0.705 J3.091 F1524.000
G2 X386.645 Y231.691 Z-2.540 I3.091 J0.705 F1524.000
G2 X387.350 Y231.770 Z-2.540 I0.705 J-3.091 F1524.000
G0 Z1.270
(finish operation: Profile_Faces)
(begin operation: T3: Robynbit)
(machine: not set, mm/min)
(T3: Robynbit)
M6 T3
M3 S0
(finish operation: T3: Robynbit)
(begin operation: Contour)
(machine: not set, mm/min)
(Contour)
(Compensated Tool Path. Diameter: 6.35)
G0 Z1.270
G0 X428.625 Y762.052
G1 X428.625 Y762.052 Z-5.080 F762.000
G2 X428.625 Y762.000 Z-5.080 I-3.175 J-0.052 F1524.000
G1 X428.625 Y478.326 Z-5.080 F1524.000
G3 X488.759 Y372.117 Z-5.080 I123.827 J-0.019 F1524.000
G1 X611.418 Y298.522 Z-5.080 F1524.000
G2 X619.123 Y285.035 Z-5.080 I-8.176 J-13.615 F1524.000
G1 X619.125 Y101.600 Z-5.080 F1524.000
G2 X603.375 Y85.727 Z-5.080 I-15.876 J0.003 F1524.000
G1 X544.240 Y85.725 Z-5.080 F1524.000
G2 X541.072 Y88.692 Z-5.080 I0.000 J3.175 F1524.000
G3 X539.921 Y90.197 Z-5.080 I-1.349 J0.161 F1524.000
G3 X539.579 Y87.603 Z-5.080 I-0.171 J-1.297 F1524.000
G2 X542.925 Y84.410 Z-5.080 I0.129 J-3.214 F1524.000
G1 X542.925 Y62.910 Z-5.080 F1524.000
G2 X539.958 Y59.742 Z-5.080 I-3.175 J0.000 F1524.000
G3 X538.453 Y58.591 Z-5.080 I-0.161 J-1.349 F1524.000
G3 X541.047 Y58.249 Z-5.080 I1.297 J-0.171 F1524.000
G2 X544.240 Y61.595 Z-5.080 I3.214 J0.129 F1524.000
G1 X570.230 Y61.595 Z-5.080 F1524.000
G2 X573.405 Y58.420 Z-5.080 I-0.000 J-3.175 F1524.000
G1 X573.405 Y25.400 Z-5.080 F1524.000
G2 X570.230 Y22.225 Z-5.080 I-3.175 J0.000 F1524.000
G1 X494.030 Y22.225 Z-5.080 F1524.000
G2 X490.855 Y25.400 Z-5.080 I0.000 J3.175 F1524.000
G1 X490.855 Y85.725 Z-5.080 F1524.000
G1 X391.840 Y85.725 Z-5.080 F1524.000
G2 X388.672 Y88.692 Z-5.080 I0.000 J3.175 F1524.000
G3 X387.521 Y90.197 Z-5.080 I-1.349 J0.161 F1524.000
G3 X387.179 Y87.603 Z-5.080 I-0.171 J-1.297 F1524.000
G2 X390.525 Y84.410 Z-5.080 I0.129 J-3.214 F1524.000
G1 X390.525 Y62.910 Z-5.080 F1524.000
G2 X387.558 Y59.742 Z-5.080 I-3.175 J0.000 F1524.000
G3 X386.053 Y58.591 Z-5.080 I-0.161 J-1.349 F1524.000
G3 X388.647 Y58.249 Z-5.080 I1.297 J-0.171 F1524.000
G2 X391.840 Y61.595 Z-5.080 I3.214 J0.129 F1524.000
G1 X417.830 Y61.595 Z-5.080 F1524.000
G2 X421.005 Y58.420 Z-5.080 I-0.000 J-3.175 F1524.000
G1 X421.005 Y25.400 Z-5.080 F1524.000
G2 X417.830 Y22.225 Z-5.080 I-3.175 J0.000 F1524.000
G1 X341.630 Y22.225 Z-5.080 F1524.000
G2 X338.455 Y25.400 Z-5.080 I0.000 J3.175 F1524.000
G1 X338.455 Y85.725 Z-5.080 F1524.000
G1 X239.440 Y85.725 Z-5.080 F1524.000
G2 X236.272 Y88.692 Z-5.080 I0.000 J3.175 F1524.000
G3 X235.121 Y90.197 Z-5.080 I-1.349 J0.161 F1524.000
G3 X234.779 Y87.603 Z-5.080 I-0.171 J-1.297 F1524.000
G2 X238.125 Y84.410 Z-5.080 I0.129 J-3.214 F1524.000
G1 X238.125 Y62.910 Z-5.080 F1524.000
G2 X235.158 Y59.742 Z-5.080 I-3.175 J0.000 F1524.000
G3 X233.653 Y58.591 Z-5.080 I-0.161 J-1.349 F1524.000
G3 X234.779 Y57.123 Z-5.080 I1.297 J-0.171 F1524.000
G3 X236.247 Y58.249 Z-5.080 I0.171 J1.297 F1524.000
G2 X239.440 Y61.595 Z-5.080 I3.214 J0.129 F1524.000
G1 X265.430 Y61.595 Z-5.080 F1524.000
G2 X268.605 Y58.420 Z-5.080 I-0.000 J-3.175 F1524.000
G1 X268.605 Y25.400 Z-5.080 F1524.000
G2 X265.430 Y22.225 Z-5.080 I-3.175 J0.000 F1524.000
G1 X189.230 Y22.225 Z-5.080 F1524.000
G2 X186.055 Y25.400 Z-5.080 I0.000 J3.175 F1524.000
G1 X186.055 Y85.725 Z-5.080 F1524.000
G1 X120.650 Y85.725 Z-5.080 F1524.000
G2 X-9.525 Y215.860 Z-5.080 I0.000 J130.175 F1524.000
G1 X-9.525 Y363.232 Z-5.080 F1524.000
G2 X32.659 Y459.165 Z-5.080 I130.176 J-0.001 F1524.000
G1 X119.176 Y538.473 Z-5.080 F1524.000
G3 X142.875 Y592.346 Z-5.080 I-49.331 J53.850 F1524.000
G1 X142.875 Y762.000 Z-5.080 F1524.000
G2 X146.050 Y765.175 Z-5.080 I3.175 J-0.000 F1524.000
G1 X425.450 Y765.175 Z-5.080 F1524.000
G2 X428.625 Y762.052 Z-5.080 I-0.000 J-3.175 F1524.000
G1 X428.625 Y762.052 Z-10.160 F762.000
G2 X428.625 Y762.000 Z-10.160 I-3.175 J-0.052 F1524.000
G1 X428.625 Y478.326 Z-10.160 F1524.000
G3 X488.759 Y372.117 Z-10.160 I123.827 J-0.019 F1524.000
G1 X611.418 Y298.522 Z-10.160 F1524.000
G2 X619.123 Y285.035 Z-10.160 I-8.176 J-13.615 F1524.000
G1 X619.125 Y101.600 Z-10.160 F1524.000
G2 X603.375 Y85.727 Z-10.160 I-15.876 J0.003 F1524.000
G1 X544.240 Y85.725 Z-10.160 F1524.000
G2 X541.072 Y88.692 Z-10.160 I0.000 J3.175 F1524.000
G3 X539.921 Y90.197 Z-10.160 I-1.349 J0.161 F1524.000
G3 X539.579 Y87.603 Z-10.160 I-0.171 J-1.297 F1524.000
G2 X542.925 Y84.410 Z-10.160 I0.129 J-3.214 F1524.000
G1 X542.925 Y62.910 Z-10.160 F1524.000
G2 X539.958 Y59.742 Z-10.160 I-3.175 J0.000 F1524.000
G3 X538.453 Y58.591 Z-10.160 I-0.161 J-1.349 F1524.000
G3 X541.047 Y58.249 Z-10.160 I1.297 J-0.171 F1524.000
G2 X544.240 Y61.595 Z-10.160 I3.214 J0.129 F1524.000
G1 X570.230 Y61.595 Z-10.160 F1524.000
G2 X573.405 Y58.420 Z-10.160 I-0.000 J-3.175 F1524.000
G1 X573.405 Y25.400 Z-10.160 F1524.000
G2 X570.230 Y22.225 Z-10.160 I-3.175 J0.000 F1524.000
G1 X494.030 Y22.225 Z-10.160 F1524.000
G2 X490.855 Y25.400 Z-10.160 I0.000 J3.175 F1524.000
G1 X490.855 Y85.725 Z-10.160 F1524.000
G1 X391.840 Y85.725 Z-10.160 F1524.000
G2 X388.672 Y88.692 Z-10.160 I0.000 J3.175 F1524.000
G3 X387.521 Y90.197 Z-10.160 I-1.349 J0.161 F1524.000
G3 X387.179 Y87.603 Z-10.160 I-0.171 J-1.297 F1524.000
G2 X390.525 Y84.410 Z-10.160 I0.129 J-3.214 F1524.000
G1 X390.525 Y62.910 Z-10.160 F1524.000
G2 X387.558 Y59.742 Z-10.160 I-3.175 J0.000 F1524.000
G3 X386.053 Y58.591 Z-10.160 I-0.161 J-1.349 F1524.000
G3 X388.647 Y58.249 Z-10.160 I1.297 J-0.171 F1524.000
G2 X391.840 Y61.595 Z-10.160 I3.214 J0.129 F1524.000
G1 X417.830 Y61.595 Z-10.160 F1524.000
G2 X421.005 Y58.420 Z-10.160 I-0.000 J-3.175 F1524.000
G1 X421.005 Y25.400 Z-10.160 F1524.000
G2 X417.830 Y22.225 Z-10.160 I-3.175 J0.000 F1524.000
G1 X341.630 Y22.225 Z-10.160 F1524.000
G2 X338.455 Y25.400 Z-10.160 I0.000 J3.175 F1524.000
G1 X338.455 Y85.725 Z-10.160 F1524.000
G1 X239.440 Y85.725 Z-10.160 F1524.000
G2 X236.272 Y88.692 Z-10.160 I0.000 J3.175 F1524.000
G3 X235.121 Y90.197 Z-10.160 I-1.349 J0.161 F1524.000
G3 X234.779 Y87.603 Z-10.160 I-0.171 J-1.297 F1524.000
G2 X238.125 Y84.410 Z-10.160 I0.129 J-3.214 F1524.000
G1 X238.125 Y62.910 Z-10.160 F1524.000
G2 X235.158 Y59.742 Z-10.160 I-3.175 J0.000 F1524.000
G3 X233.653 Y58.591 Z-10.160 I-0.161 J-1.349 F1524.000
G3 X234.779 Y57.123 Z-10.160 I1.297 J-0.171 F1524.000
G3 X236.247 Y58.249 Z-10.160 I0.171 J1.297 F1524.000
G2 X239.440 Y61.595 Z-10.160 I3.214 J0.129 F1524.000
G1 X265.430 Y61.595 Z-10.160 F1524.000
G2 X268.605 Y58.420 Z-10.160 I-0.000 J-3.175 F1524.000
G1 X268.605 Y25.400 Z-10.160 F1524.000
G2 X265.430 Y22.225 Z-10.160 I-3.175 J0.000 F1524.000
G1 X189.230 Y22.225 Z-10.160 F1524.000
G2 X186.055 Y25.400 Z-10.160 I0.000 J3.175 F1524.000
G1 X186.055 Y85.725 Z-10.160 F1524.000
G1 X120.650 Y85.725 Z-10.160 F1524.000
G2 X-9.525 Y215.860 Z-10.160 I0.000 J130.175 F1524.000
G1 X-9.525 Y363.232 Z-10.160 F1524.000
G2 X32.659 Y459.165 Z-10.160 I130.176 J-0.001 F1524.000
G1 X119.176 Y538.473 Z-10.160 F1524.000
G3 X142.875 Y592.346 Z-10.160 I-49.331 J53.850 F1524.000
G1 X142.875 Y762.000 Z-10.160 F1524.000
G2 X146.050 Y765.175 Z-10.160 I3.175 J-0.000 F1524.000
G1 X425.450 Y765.175 Z-10.160 F1524.000
G2 X428.625 Y762.052 Z-10.160 I-0.000 J-3.175 F1524.000
G1 X428.625 Y762.052 Z-15.240 F762.000
G2 X428.625 Y762.000 Z-15.240 I-3.175 J-0.052 F1524.000
G1 X428.625 Y478.326 Z-15.240 F1524.000
G3 X488.759 Y372.117 Z-15.240 I123.827 J-0.019 F1524.000
G1 X611.418 Y298.522 Z-15.240 F1524.000
G2 X619.123 Y285.035 Z-15.240 I-8.176 J-13.615 F1524.000
G1 X619.125 Y101.600 Z-15.240 F1524.000
G2 X603.375 Y85.727 Z-15.240 I-15.876 J0.003 F1524.000
G1 X544.240 Y85.725 Z-15.240 F1524.000
G2 X541.072 Y88.692 Z-15.240 I0.000 J3.175 F1524.000
G3 X539.921 Y90.197 Z-15.240 I-1.349 J0.161 F1524.000
G3 X539.579 Y87.603 Z-15.240 I-0.171 J-1.297 F1524.000
G2 X542.925 Y84.410 Z-15.240 I0.129 J-3.214 F1524.000
G1 X542.925 Y62.910 Z-15.240 F1524.000
G2 X539.958 Y59.742 Z-15.240 I-3.175 J0.000 F1524.000
G3 X538.453 Y58.591 Z-15.240 I-0.161 J-1.349 F1524.000
G3 X541.047 Y58.249 Z-15.240 I1.297 J-0.171 F1524.000
G2 X544.240 Y61.595 Z-15.240 I3.214 J0.129 F1524.000
G1 X570.230 Y61.595 Z-15.240 F1524.000
G2 X573.405 Y58.420 Z-15.240 I-0.000 J-3.175 F1524.000
G1 X573.405 Y25.400 Z-15.240 F1524.000
G2 X570.230 Y22.225 Z-15.240 I-3.175 J0.000 F1524.000
G1 X494.030 Y22.225 Z-15.240 F1524.000
G2 X490.855 Y25.400 Z-15.240 I0.000 J3.175 F1524.000
G1 X490.855 Y85.725 Z-15.240 F1524.000
G1 X391.840 Y85.725 Z-15.240 F1524.000
G2 X388.672 Y88.692 Z-15.240 I0.000 J3.175 F1524.000
G3 X387.521 Y90.197 Z-15.240 I-1.349 J0.161 F1524.000
G3 X387.179 Y87.603 Z-15.240 I-0.171 J-1.297 F1524.000
G2 X390.525 Y84.410 Z-15.240 I0.129 J-3.214 F1524.000
G1 X390.525 Y62.910 Z-15.240 F1524.000
G2 X387.558 Y59.742 Z-15.240 I-3.175 J0.000 F1524.000
G3 X386.053 Y58.591 Z-15.240 I-0.161 J-1.349 F1524.000
G3 X388.647 Y58.249 Z-15.240 I1.297 J-0.171 F1524.000
G2 X391.840 Y61.595 Z-15.240 I3.214 J0.129 F1524.000
G1 X417.830 Y61.595 Z-15.240 F1524.000
G2 X421.005 Y58.420 Z-15.240 I-0.000 J-3.175 F1524.000
G1 X421.005 Y25.400 Z-15.240 F1524.000
G2 X417.830 Y22.225 Z-15.240 I-3.175 J0.000 F1524.000
G1 X341.630 Y22.225 Z-15.240 F1524.000
G2 X338.455 Y25.400 Z-15.240 I0.000 J3.175 F1524.000
G1 X338.455 Y85.725 Z-15.240 F1524.000
G1 X239.440 Y85.725 Z-15.240 F1524.000
G2 X236.272 Y88.692 Z-15.240 I0.000 J3.175 F1524.000
G3 X235.121 Y90.197 Z-15.240 I-1.349 J0.161 F1524.000
G3 X234.779 Y87.603 Z-15.240 I-0.171 J-1.297 F1524.000
G2 X238.125 Y84.410 Z-15.240 I0.129 J-3.214 F1524.000
G1 X238.125 Y62.910 Z-15.240 F1524.000
G2 X235.158 Y59.742 Z-15.240 I-3.175 J0.000 F1524.000
G3 X233.653 Y58.591 Z-15.240 I-0.161 J-1.349 F1524.000
G3 X234.779 Y57.123 Z-15.240 I1.297 J-0.171 F1524.000
G3 X236.247 Y58.249 Z-15.240 I0.171 J1.297 F1524.000
G2 X239.440 Y61.595 Z-15.240 I3.214 J0.129 F1524.000
G1 X265.430 Y61.595 Z-15.240 F1524.000
G2 X268.605 Y58.420 Z-15.240 I-0.000 J-3.175 F1524.000
G1 X268.605 Y25.400 Z-15.240 F1524.000
G2 X265.430 Y22.225 Z-15.240 I-3.175 J0.000 F1524.000
G1 X189.230 Y22.225 Z-15.240 F1524.000
G2 X186.055 Y25.400 Z-15.240 I0.000 J3.175 F1524.000
G1 X186.055 Y85.725 Z-15.240 F1524.000
G1 X120.650 Y85.725 Z-15.240 F1524.000
G2 X-9.525 Y215.860 Z-15.240 I0.000 J130.175 F1524.000
G1 X-9.525 Y363.232 Z-15.240 F1524.000
G2 X32.659 Y459.165 Z-15.240 I130.176 J-0.001 F1524.000
G1 X119.176 Y538.473 Z-15.240 F1524.000
G3 X142.875 Y592.346 Z-15.240 I-49.331 J53.850 F1524.000
G1 X142.875 Y762.000 Z-15.240 F1524.000
G2 X146.050 Y765.175 Z-15.240 I3.175 J-0.000 F1524.000
G1 X425.450 Y765.175 Z-15.240 F1524.000
G2 X428.625 Y762.052 Z-15.240 I-0.000 J-3.175 F1524.000
G1 X428.625 Y762.052 Z-20.320 F762.000
G2 X428.625 Y762.000 Z-20.320 I-3.175 J-0.052 F1524.000
G1 X428.625 Y478.326 Z-20.320 F1524.000
G3 X488.759 Y372.117 Z-20.320 I123.827 J-0.019 F1524.000
G1 X611.418 Y298.522 Z-20.320 F1524.000
G2 X619.123 Y285.035 Z-20.320 I-8.176 J-13.615 F1524.000
G1 X619.125 Y101.600 Z-20.320 F1524.000
G2 X603.375 Y85.727 Z-20.320 I-15.876 J0.003 F1524.000
G1 X544.240 Y85.725 Z-20.320 F1524.000
G2 X541.072 Y88.692 Z-20.320 I0.000 J3.175 F1524.000
G3 X539.921 Y90.197 Z-20.320 I-1.349 J0.161 F1524.000
G3 X539.579 Y87.603 Z-20.320 I-0.171 J-1.297 F1524.000
G2 X542.925 Y84.410 Z-20.320 I0.129 J-3.214 F1524.000
G1 X542.925 Y62.910 Z-20.320 F1524.000
G2 X539.958 Y59.742 Z-20.320 I-3.175 J0.000 F1524.000
G3 X538.453 Y58.591 Z-20.320 I-0.161 J-1.349 F1524.000
G3 X541.047 Y58.249 Z-20.320 I1.297 J-0.171 F1524.000
G2 X544.240 Y61.595 Z-20.320 I3.214 J0.129 F1524.000
G1 X570.230 Y61.595 Z-20.320 F1524.000
G2 X573.405 Y58.420 Z-20.320 I-0.000 J-3.175 F1524.000
G1 X573.405 Y25.400 Z-20.320 F1524.000
G2 X570.230 Y22.225 Z-20.320 I-3.175 J0.000 F1524.000
G1 X494.030 Y22.225 Z-20.320 F1524.000
G2 X490.855 Y25.400 Z-20.320 I0.000 J3.175 F1524.000
G1 X490.855 Y85.725 Z-20.320 F1524.000
G1 X391.840 Y85.725 Z-20.320 F1524.000
G2 X388.672 Y88.692 Z-20.320 I0.000 J3.175 F1524.000
G3 X387.521 Y90.197 Z-20.320 I-1.349 J0.161 F1524.000
G3 X387.179 Y87.603 Z-20.320 I-0.171 J-1.297 F1524.000
G2 X390.525 Y84.410 Z-20.320 I0.129 J-3.214 F1524.000
G1 X390.525 Y62.910 Z-20.320 F1524.000
G2 X387.558 Y59.742 Z-20.320 I-3.175 J0.000 F1524.000
G3 X386.053 Y58.591 Z-20.320 I-0.161 J-1.349 F1524.000
G3 X388.647 Y58.249 Z-20.320 I1.297 J-0.171 F1524.000
G2 X391.840 Y61.595 Z-20.320 I3.214 J0.129 F1524.000
G1 X417.830 Y61.595 Z-20.320 F1524.000
G2 X421.005 Y58.420 Z-20.320 I-0.000 J-3.175 F1524.000
G1 X421.005 Y25.400 Z-20.320 F1524.000
G2 X417.830 Y22.225 Z-20.320 I-3.175 J0.000 F1524.000
G1 X341.630 Y22.225 Z-20.320 F1524.000
G2 X338.455 Y25.400 Z-20.320 I0.000 J3.175 F1524.000
G1 X338.455 Y85.725 Z-20.320 F1524.000
G1 X239.440 Y85.725 Z-20.320 F1524.000
G2 X236.272 Y88.692 Z-20.320 I0.000 J3.175 F1524.000
G3 X235.121 Y90.197 Z-20.320 I-1.349 J0.161 F1524.000
G3 X234.779 Y87.603 Z-20.320 I-0.171 J-1.297 F1524.000
G2 X238.125 Y84.410 Z-20.320 I0.129 J-3.214 F1524.000
G1 X238.125 Y62.910 Z-20.320 F1524.000
G2 X235.158 Y59.742 Z-20.320 I-3.175 J0.000 F1524.000
G3 X233.653 Y58.591 Z-20.320 I-0.161 J-1.349 F1524.000
G3 X234.779 Y57.123 Z-20.320 I1.297 J-0.171 F1524.000
G3 X236.247 Y58.249 Z-20.320 I0.171 J1.297 F1524.000
G2 X239.440 Y61.595 Z-20.320 I3.214 J0.129 F1524.000
G1 X265.430 Y61.595 Z-20.320 F1524.000
G2 X268.605 Y58.420 Z-20.320 I-0.000 J-3.175 F1524.000
G1 X268.605 Y25.400 Z-20.320 F1524.000
G2 X265.430 Y22.225 Z-20.320 I-3.175 J0.000 F1524.000
G1 X189.230 Y22.225 Z-20.320 F1524.000
G2 X186.055 Y25.400 Z-20.320 I0.000 J3.175 F1524.000
G1 X186.055 Y85.725 Z-20.320 F1524.000
G1 X120.650 Y85.725 Z-20.320 F1524.000
G2 X-9.525 Y215.860 Z-20.320 I0.000 J130.175 F1524.000
G1 X-9.525 Y363.232 Z-20.320 F1524.000
G2 X32.659 Y459.165 Z-20.320 I130.176 J-0.001 F1524.000
G1 X119.176 Y538.473 Z-20.320 F1524.000
G3 X142.875 Y592.346 Z-20.320 I-49.331 J53.850 F1524.000
G1 X142.875 Y762.000 Z-20.320 F1524.000
G2 X146.050 Y765.175 Z-20.320 I3.175 J-0.000 F1524.000
G1 X425.450 Y765.175 Z-20.320 F1524.000
G2 X428.625 Y762.052 Z-20.320 I-0.000 J-3.175 F1524.000
G0 Z1.270
(finish operation: Contour)
(begin postamble)
M05
G17 G54 G90 G80 G40
M2
