(Designed by Robyn and Jose Giraldez)
(Exported by FreeCAD)
(Post Processor: linuxcnc_post)
(Output Time:2018-07-31 21:43:10.921000)
(begin preamble)
G17 G54 G40 G49 G80 G90
G21
(begin operation: T3: Robynbit)
(machine: not set, mm/min)
(T3: Robynbit)
M6 T3
M3 S0
(finish operation: T3: Robynbit)
(begin operation: Pocket_Shape)
(machine: not set, mm/min)
(Pocket_Shape)
G0 Z1.270
G0 X78.442 Y-80.308
G1 X78.442 Y-80.308 Z-2.540
G3 X75.495 Y-79.459 Z-2.540 I-2.242 J-2.242
G3 X76.905 Y-85.641 Z-2.540 I0.705 J-3.091
G3 X78.442 Y-80.308 Z-2.540 I-0.705 J3.091
G0 Z1.270
(finish operation: Pocket_Shape)
(begin operation: T3: Robynbit)
(machine: not set, mm/min)
(T3: Robynbit)
M6 T3
M3 S0
(finish operation: T3: Robynbit)
(begin operation: Pocket_Shape001)
(machine: not set, mm/min)
(Pocket_Shape001)
G0 Z1.270
G0 X230.842 Y-80.308
G1 X230.842 Y-80.308 Z-2.540
G3 X227.895 Y-79.459 Z-2.540 I-2.242 J-2.242
G3 X229.305 Y-85.641 Z-2.540 I0.705 J-3.091
G3 X230.842 Y-80.308 Z-2.540 I-0.705 J3.091
G0 Z1.270
(finish operation: Pocket_Shape001)
(begin operation: T3: Robynbit)
(machine: not set, mm/min)
(T3: Robynbit)
M6 T3
M3 S0
(finish operation: T3: Robynbit)
(begin operation: Pocket_Shape002)
(machine: not set, mm/min)
(Pocket_Shape002)
G0 Z1.270
G0 X383.242 Y-80.308
G1 X383.242 Y-80.308 Z-2.540
G3 X380.295 Y-79.459 Z-2.540 I-2.242 J-2.242
G3 X381.705 Y-85.641 Z-2.540 I0.705 J-3.091
G3 X383.242 Y-80.308 Z-2.540 I-0.705 J3.091
G0 Z1.270
(finish operation: Pocket_Shape002)
(begin operation: T3: Robynbit)
(machine: not set, mm/min)
(T3: Robynbit)
M6 T3
M3 S0
(finish operation: T3: Robynbit)
(begin operation: Pocket_Shape003)
(machine: not set, mm/min)
(Pocket_Shape003)
G0 Z1.270
G0 X535.642 Y-80.308
G1 X535.642 Y-80.308 Z-2.540
G3 X532.695 Y-79.459 Z-2.540 I-2.242 J-2.242
G3 X534.105 Y-85.641 Z-2.540 I0.705 J-3.091
G3 X535.642 Y-80.308 Z-2.540 I-0.705 J3.091
G0 Z1.270
(finish operation: Pocket_Shape003)
(begin operation: T3: Robynbit)
(machine: not set, mm/min)
(T3: Robynbit)
M6 T3
M3 S0
(finish operation: T3: Robynbit)
(begin operation: TagDressup)
(machine: not set, mm/min)
G0 Z1.270
G0 X654.139 Y256.766 Z1.270
G1 X654.139 Y256.766 Z-5.588
G2 X676.275 Y184.190 Z-5.588 I-108.039 J-72.616
G1 X676.275 Y118.745 Z-5.588
G1 X736.600 Y118.745 Z-5.588
G2 X739.775 Y115.570 Z-5.588 I-0.000 J-3.175
G1 X739.775 Y39.370 Z-5.588
G2 X736.600 Y36.195 Z-5.588 I-3.175 J0.000
G1 X703.580 Y36.195 Z-5.588
G2 X700.405 Y39.370 Z-5.588 I0.000 J3.175
G1 X700.405 Y65.360 Z-5.588
G2 X703.372 Y68.528 Z-5.588 I3.175 J0.000
G3 X704.877 Y69.679 Z-5.588 I0.161 J1.349
G3 X702.283 Y70.021 Z-5.588 I-1.297 J0.171
G2 X699.090 Y66.675 Z-5.588 I-3.214 J-0.129
G1 X677.590 Y66.675 Z-5.588
G2 X674.422 Y69.642 Z-5.588 I0.000 J3.175
G3 X673.271 Y71.147 Z-5.588 I-1.349 J0.161
G3 X671.803 Y70.021 Z-5.588 I-0.171 J-1.297
G3 X672.929 Y68.553 Z-5.588 I1.297 J-0.171
G2 X676.275 Y65.360 Z-5.588 I0.129 J-3.214
G1 X676.275 Y-33.655 Z-5.588
G1 X736.600 Y-33.655 Z-5.588
G2 X739.775 Y-36.830 Z-5.588 I-0.000 J-3.175
G1 X739.775 Y-113.030 Z-5.588
G2 X736.600 Y-116.205 Z-5.588 I-3.175 J0.000
G1 X703.580 Y-116.205 Z-5.588
G2 X700.405 Y-113.030 Z-5.588 I0.000 J3.175
G1 X700.405 Y-87.040 Z-5.588
G2 X703.372 Y-83.872 Z-5.588 I3.175 J0.000
G3 X704.877 Y-82.721 Z-5.588 I0.161 J1.349
G3 X702.283 Y-82.379 Z-5.588 I-1.297 J0.171
G2 X699.090 Y-85.725 Z-5.588 I-3.214 J-0.129
G1 X677.590 Y-85.725 Z-5.588
G2 X674.422 Y-82.758 Z-5.588 I0.000 J3.175
G3 X673.271 Y-81.253 Z-5.588 I-1.349 J0.161
G3 X671.803 Y-82.379 Z-5.588 I-0.171 J-1.297
G3 X672.929 Y-83.847 Z-5.588 I1.297 J-0.171
G2 X676.275 Y-87.040 Z-5.588 I0.129 J-3.214
G1 X676.275 Y-186.055 Z-5.588
G1 X736.600 Y-186.055 Z-5.588
G2 X739.775 Y-189.230 Z-5.588 I-0.000 J-3.175
G1 X739.775 Y-265.430 Z-5.588
G2 X736.600 Y-268.605 Z-5.588 I-3.175 J0.000
G1 X703.580 Y-268.605 Z-5.588
G2 X700.405 Y-265.430 Z-5.588 I0.000 J3.175
G1 X700.405 Y-239.440 Z-5.588
G2 X703.372 Y-236.272 Z-5.588 I3.175 J0.000
G3 X704.877 Y-235.121 Z-5.588 I0.161 J1.349
G3 X702.283 Y-234.779 Z-5.588 I-1.297 J0.171
G2 X699.090 Y-238.125 Z-5.588 I-3.214 J-0.129
G1 X677.590 Y-238.125 Z-5.588
G2 X674.422 Y-235.158 Z-5.588 I0.000 J3.175
G3 X673.271 Y-233.653 Z-5.588 I-1.349 J0.161
G3 X671.803 Y-234.779 Z-5.588 I-0.171 J-1.297
G3 X672.929 Y-236.247 Z-5.588 I1.297 J-0.171
G2 X676.275 Y-239.440 Z-5.588 I0.129 J-3.214
G1 X676.275 Y-298.450 Z-5.588
G2 X660.525 Y-314.323 Z-5.588 I-15.876 J0.003
G1 X477.091 Y-314.325 Z-5.588
G2 X463.545 Y-306.724 Z-5.588 I0.006 J15.881
G1 X389.883 Y-183.959 Z-5.588
G3 X283.674 Y-123.825 Z-5.588 I-106.190 J-63.692
G1 X0.000 Y-123.825 Z-5.588
G2 X-3.175 Y-120.650 Z-5.588 I0.000 J3.175
G1 X-3.175 Y158.750 Z-5.588
G2 X0.000 Y161.925 Z-5.588 I3.175 J-0.000
G1 X169.654 Y161.925 Z-5.588
G3 X223.527 Y185.624 Z-5.588 I0.023 J73.029
G1 X302.808 Y272.112 Z-5.588
G2 X398.729 Y314.325 Z-5.588 I95.959 J-87.964
G1 X546.100 Y314.325 Z-5.588
G2 X654.139 Y256.766 Z-5.588 I-0.000 J-130.175
G1 X654.139 Y256.766 Z-11.176
G2 X676.275 Y184.190 Z-11.176 I-108.039 J-72.616
G1 X676.275 Y118.745 Z-11.176
G1 X736.600 Y118.745 Z-11.176
G2 X739.775 Y115.570 Z-11.176 I-0.000 J-3.175
G1 X739.775 Y39.370 Z-11.176
G2 X736.600 Y36.195 Z-11.176 I-3.175 J0.000
G1 X703.580 Y36.195 Z-11.176
G2 X700.405 Y39.370 Z-11.176 I0.000 J3.175
G1 X700.405 Y65.360 Z-11.176
G2 X703.372 Y68.528 Z-11.176 I3.175 J0.000
G3 X704.877 Y69.679 Z-11.176 I0.161 J1.349
G3 X702.283 Y70.021 Z-11.176 I-1.297 J0.171
G2 X699.090 Y66.675 Z-11.176 I-3.214 J-0.129
G1 X677.590 Y66.675 Z-11.176
G2 X674.422 Y69.642 Z-11.176 I0.000 J3.175
G3 X673.271 Y71.147 Z-11.176 I-1.349 J0.161
G3 X671.803 Y70.021 Z-11.176 I-0.171 J-1.297
G3 X672.929 Y68.553 Z-11.176 I1.297 J-0.171
G2 X676.275 Y65.360 Z-11.176 I0.129 J-3.214
G1 X676.275 Y-33.655 Z-11.176
G1 X736.600 Y-33.655 Z-11.176
G2 X739.775 Y-36.830 Z-11.176 I-0.000 J-3.175
G1 X739.775 Y-113.030 Z-11.176
G2 X736.600 Y-116.205 Z-11.176 I-3.175 J0.000
G1 X703.580 Y-116.205 Z-11.176
G2 X700.405 Y-113.030 Z-11.176 I0.000 J3.175
G1 X700.405 Y-87.040 Z-11.176
G2 X703.372 Y-83.872 Z-11.176 I3.175 J0.000
G3 X704.877 Y-82.721 Z-11.176 I0.161 J1.349
G3 X702.283 Y-82.379 Z-11.176 I-1.297 J0.171
G2 X699.090 Y-85.725 Z-11.176 I-3.214 J-0.129
G1 X677.590 Y-85.725 Z-11.176
G2 X674.422 Y-82.758 Z-11.176 I0.000 J3.175
G3 X673.271 Y-81.253 Z-11.176 I-1.349 J0.161
G3 X671.803 Y-82.379 Z-11.176 I-0.171 J-1.297
G3 X672.929 Y-83.847 Z-11.176 I1.297 J-0.171
G2 X676.275 Y-87.040 Z-11.176 I0.129 J-3.214
G1 X676.275 Y-186.055 Z-11.176
G1 X736.600 Y-186.055 Z-11.176
G2 X739.775 Y-189.230 Z-11.176 I-0.000 J-3.175
G1 X739.775 Y-265.430 Z-11.176
G2 X736.600 Y-268.605 Z-11.176 I-3.175 J0.000
G1 X703.580 Y-268.605 Z-11.176
G2 X700.405 Y-265.430 Z-11.176 I0.000 J3.175
G1 X700.405 Y-239.440 Z-11.176
G2 X703.372 Y-236.272 Z-11.176 I3.175 J0.000
G3 X704.877 Y-235.121 Z-11.176 I0.161 J1.349
G3 X702.283 Y-234.779 Z-11.176 I-1.297 J0.171
G2 X699.090 Y-238.125 Z-11.176 I-3.214 J-0.129
G1 X677.590 Y-238.125 Z-11.176
G2 X674.422 Y-235.158 Z-11.176 I0.000 J3.175
G3 X673.271 Y-233.653 Z-11.176 I-1.349 J0.161
G3 X671.803 Y-234.779 Z-11.176 I-0.171 J-1.297
G3 X672.929 Y-236.247 Z-11.176 I1.297 J-0.171
G2 X676.275 Y-239.440 Z-11.176 I0.129 J-3.214
G1 X676.275 Y-298.450 Z-11.176
G2 X660.525 Y-314.323 Z-11.176 I-15.876 J0.003
G1 X477.091 Y-314.325 Z-11.176
G2 X463.545 Y-306.724 Z-11.176 I0.006 J15.881
G1 X389.883 Y-183.959 Z-11.176
G3 X283.674 Y-123.825 Z-11.176 I-106.190 J-63.692
G1 X0.000 Y-123.825 Z-11.176
G2 X-3.175 Y-120.650 Z-11.176 I0.000 J3.175
G1 X-3.175 Y158.750 Z-11.176
G2 X0.000 Y161.925 Z-11.176 I3.175 J-0.000
G1 X169.654 Y161.925 Z-11.176
G3 X223.527 Y185.624 Z-11.176 I0.023 J73.029
G1 X302.808 Y272.112 Z-11.176
G2 X398.729 Y314.325 Z-11.176 I95.959 J-87.964
G1 X546.100 Y314.325 Z-11.176
G2 X654.139 Y256.766 Z-11.176 I-0.000 J-130.175
G1 X654.139 Y256.766 Z-16.764
G2 X676.275 Y184.190 Z-16.764 I-108.039 J-72.616
G1 X676.275 Y118.745 Z-16.764
G1 X736.600 Y118.745 Z-16.764
G2 X739.775 Y115.570 Z-16.764 I-0.000 J-3.175
G1 X739.775 Y39.370 Z-16.764
G2 X736.600 Y36.195 Z-16.764 I-3.175 J0.000
G1 X703.580 Y36.195 Z-16.764
G2 X700.405 Y39.370 Z-16.764 I0.000 J3.175
G1 X700.405 Y65.360 Z-16.764
G2 X703.372 Y68.528 Z-16.764 I3.175 J0.000
G3 X704.877 Y69.679 Z-16.764 I0.161 J1.349
G3 X702.283 Y70.021 Z-16.764 I-1.297 J0.171
G2 X699.090 Y66.675 Z-16.764 I-3.214 J-0.129
G1 X677.590 Y66.675 Z-16.764
G2 X674.422 Y69.642 Z-16.764 I0.000 J3.175
G3 X673.271 Y71.147 Z-16.764 I-1.349 J0.161
G3 X671.803 Y70.021 Z-16.764 I-0.171 J-1.297
G3 X672.929 Y68.553 Z-16.764 I1.297 J-0.171
G2 X676.275 Y65.360 Z-16.764 I0.129 J-3.214
G1 X676.275 Y-33.655 Z-16.764
G1 X736.600 Y-33.655 Z-16.764
G2 X739.775 Y-36.830 Z-16.764 I-0.000 J-3.175
G1 X739.775 Y-113.030 Z-16.764
G2 X736.600 Y-116.205 Z-16.764 I-3.175 J0.000
G1 X703.580 Y-116.205 Z-16.764
G2 X700.405 Y-113.030 Z-16.764 I0.000 J3.175
G1 X700.405 Y-87.040 Z-16.764
G2 X703.372 Y-83.872 Z-16.764 I3.175 J0.000
G3 X704.877 Y-82.721 Z-16.764 I0.161 J1.349
G3 X702.283 Y-82.379 Z-16.764 I-1.297 J0.171
G2 X699.090 Y-85.725 Z-16.764 I-3.214 J-0.129
G1 X677.590 Y-85.725 Z-16.764
G2 X674.422 Y-82.758 Z-16.764 I0.000 J3.175
G3 X673.271 Y-81.253 Z-16.764 I-1.349 J0.161
G3 X671.803 Y-82.379 Z-16.764 I-0.171 J-1.297
G3 X672.929 Y-83.847 Z-16.764 I1.297 J-0.171
G2 X676.275 Y-87.040 Z-16.764 I0.129 J-3.214
G1 X676.275 Y-133.169 Z-16.764
G1 X676.275 Y-134.693 Z-15.240
G1 X676.275 Y-138.402 Z-15.240
G1 X676.275 Y-139.926 Z-16.764
G1 X676.275 Y-186.055 Z-16.764
G1 X736.600 Y-186.055 Z-16.764
G2 X739.775 Y-189.230 Z-16.764 I-0.000 J-3.175
G1 X739.775 Y-265.430 Z-16.764
G2 X736.600 Y-268.605 Z-16.764 I-3.175 J0.000
G1 X703.580 Y-268.605 Z-16.764
G2 X700.405 Y-265.430 Z-16.764 I0.000 J3.175
G1 X700.405 Y-239.440 Z-16.764
G2 X703.372 Y-236.272 Z-16.764 I3.175 J0.000
G3 X704.877 Y-235.121 Z-16.764 I0.161 J1.349
G3 X702.283 Y-234.779 Z-16.764 I-1.297 J0.171
G2 X699.090 Y-238.125 Z-16.764 I-3.214 J-0.129
G1 X677.590 Y-238.125 Z-16.764
G2 X674.422 Y-235.158 Z-16.764 I0.000 J3.175
G3 X673.271 Y-233.653 Z-16.764 I-1.349 J0.161
G3 X671.803 Y-234.779 Z-16.764 I-0.171 J-1.297
G3 X672.929 Y-236.247 Z-16.764 I1.297 J-0.171
G2 X676.275 Y-239.440 Z-16.764 I0.129 J-3.214
G1 X676.275 Y-298.450 Z-16.764
G2 X660.525 Y-314.323 Z-16.764 I-15.876 J0.003
G1 X572.186 Y-314.324 Z-16.764
G1 X570.662 Y-314.324 Z-15.240
G1 X566.953 Y-314.324 Z-15.240
G1 X565.429 Y-314.324 Z-16.764
G1 X477.091 Y-314.325 Z-16.764
G2 X463.545 Y-306.724 Z-16.764 I0.006 J15.881
G1 X389.883 Y-183.959 Z-16.764
G3 X283.674 Y-123.825 Z-16.764 I-106.190 J-63.692
G1 X0.000 Y-123.825 Z-16.764
G2 X-3.175 Y-120.650 Z-16.764 I0.000 J3.175
G1 X-3.175 Y158.750 Z-16.764
G2 X0.000 Y161.925 Z-16.764 I3.175 J-0.000
G1 X169.654 Y161.925 Z-16.764
G3 X223.527 Y185.624 Z-16.764 I0.023 J73.029
G1 X302.808 Y272.112 Z-16.764
G2 X398.729 Y314.325 Z-16.764 I95.959 J-87.964
G1 X469.036 Y314.325 Z-16.764
G1 X470.560 Y314.325 Z-15.240
G1 X474.269 Y314.325 Z-15.240
G1 X475.793 Y314.325 Z-16.764
G1 X546.100 Y314.325 Z-16.764
G2 X654.139 Y256.766 Z-16.764 I-0.000 J-130.175
G1 X654.139 Y256.766 Z-20.320
G2 X676.275 Y184.190 Z-20.320 I-108.039 J-72.616
G1 X676.275 Y118.745 Z-20.320
G1 X736.600 Y118.745 Z-20.320
G2 X739.775 Y115.570 Z-20.320 I-0.000 J-3.175
G1 X739.775 Y39.370 Z-20.320
G2 X736.600 Y36.195 Z-20.320 I-3.175 J0.000
G1 X703.580 Y36.195 Z-20.320
G2 X700.405 Y39.370 Z-20.320 I0.000 J3.175
G1 X700.405 Y65.360 Z-20.320
G2 X703.372 Y68.528 Z-20.320 I3.175 J0.000
G3 X704.877 Y69.679 Z-20.320 I0.161 J1.349
G3 X702.283 Y70.021 Z-20.320 I-1.297 J0.171
G2 X699.090 Y66.675 Z-20.320 I-3.214 J-0.129
G1 X677.590 Y66.675 Z-20.320
G2 X674.422 Y69.642 Z-20.320 I0.000 J3.175
G3 X673.271 Y71.147 Z-20.320 I-1.349 J0.161
G3 X671.803 Y70.021 Z-20.320 I-0.171 J-1.297
G3 X672.929 Y68.553 Z-20.320 I1.297 J-0.171
G2 X676.275 Y65.360 Z-20.320 I0.129 J-3.214
G1 X676.275 Y-33.655 Z-20.320
G1 X736.600 Y-33.655 Z-20.320
G2 X739.775 Y-36.830 Z-20.320 I-0.000 J-3.175
G1 X739.775 Y-113.030 Z-20.320
G2 X736.600 Y-116.205 Z-20.320 I-3.175 J0.000
G1 X703.580 Y-116.205 Z-20.320
G2 X700.405 Y-113.030 Z-20.320 I0.000 J3.175
G1 X700.405 Y-87.040 Z-20.320
G2 X703.372 Y-83.872 Z-20.320 I3.175 J0.000
G3 X704.877 Y-82.721 Z-20.320 I0.161 J1.349
G3 X702.283 Y-82.379 Z-20.320 I-1.297 J0.171
G2 X699.090 Y-85.725 Z-20.320 I-3.214 J-0.129
G1 X677.590 Y-85.725 Z-20.320
G2 X674.422 Y-82.758 Z-20.320 I0.000 J3.175
G3 X673.271 Y-81.253 Z-20.320 I-1.349 J0.161
G3 X671.803 Y-82.379 Z-20.320 I-0.171 J-1.297
G3 X672.929 Y-83.847 Z-20.320 I1.297 J-0.171
G2 X676.275 Y-87.040 Z-20.320 I0.129 J-3.214
G1 X676.275 Y-129.613 Z-20.320
G1 X676.275 Y-134.693 Z-15.240
G1 X676.275 Y-138.402 Z-15.240
G1 X676.275 Y-143.482 Z-20.320
G1 X676.275 Y-186.055 Z-20.320
G1 X736.600 Y-186.055 Z-20.320
G2 X739.775 Y-189.230 Z-20.320 I-0.000 J-3.175
G1 X739.775 Y-265.430 Z-20.320
G2 X736.600 Y-268.605 Z-20.320 I-3.175 J0.000
G1 X703.580 Y-268.605 Z-20.320
G2 X700.405 Y-265.430 Z-20.320 I0.000 J3.175
G1 X700.405 Y-239.440 Z-20.320
G2 X703.372 Y-236.272 Z-20.320 I3.175 J0.000
G3 X704.877 Y-235.121 Z-20.320 I0.161 J1.349
G3 X702.283 Y-234.779 Z-20.320 I-1.297 J0.171
G2 X699.090 Y-238.125 Z-20.320 I-3.214 J-0.129
G1 X677.590 Y-238.125 Z-20.320
G2 X674.422 Y-235.158 Z-20.320 I0.000 J3.175
G3 X673.271 Y-233.653 Z-20.320 I-1.349 J0.161
G3 X671.803 Y-234.779 Z-20.320 I-0.171 J-1.297
G3 X672.929 Y-236.247 Z-20.320 I1.297 J-0.171
G2 X676.275 Y-239.440 Z-20.320 I0.129 J-3.214
G1 X676.275 Y-298.450 Z-20.320
G2 X660.525 Y-314.323 Z-20.320 I-15.876 J0.003
G1 X575.742 Y-314.324 Z-20.320
G1 X570.662 Y-314.324 Z-15.240
G1 X566.953 Y-314.324 Z-15.240
G1 X561.873 Y-314.324 Z-20.320
G1 X477.091 Y-314.325 Z-20.320
G2 X463.545 Y-306.724 Z-20.320 I0.006 J15.881
G1 X389.883 Y-183.959 Z-20.320
G3 X283.674 Y-123.825 Z-20.320 I-106.190 J-63.692
G1 X0.000 Y-123.825 Z-20.320
G2 X-3.175 Y-120.650 Z-20.320 I0.000 J3.175
G1 X-3.175 Y158.750 Z-20.320
G2 X0.000 Y161.925 Z-20.320 I3.175 J-0.000
G1 X169.654 Y161.925 Z-20.320
G3 X223.527 Y185.624 Z-20.320 I0.023 J73.029
G1 X302.808 Y272.112 Z-20.320
G2 X398.729 Y314.325 Z-20.320 I95.959 J-87.964
G1 X465.480 Y314.325 Z-20.320
G1 X470.560 Y314.325 Z-15.240
G1 X474.269 Y314.325 Z-15.240
G1 X479.349 Y314.325 Z-20.320
G1 X546.100 Y314.325 Z-20.320
G2 X654.139 Y256.766 Z-20.320 I-0.000 J-130.175
G0 X654.139 Y256.766 Z1.270
(finish operation: TagDressup)
(begin postamble)
M05
G17 G54 G90 G80 G40
M2
