(Designed by Robyn and Jose Giraldez)
(Exported by FreeCAD)
(Post Processor: linuxcnc_post)
(Output Time:2018-07-31 21:45:29.597000)
(begin preamble)
G17 G54 G40 G49 G80 G90
G21
(begin operation: T3: Robynbit)
(machine: not set, mm/min)
(T3: Robynbit)
M6 T3
M3 S0
(finish operation: T3: Robynbit)
(begin operation: Pocket_Shape)
(machine: not set, mm/min)
(Pocket_Shape)
G0 Z1.270
G0 X16.579 Y17.855
G1 X16.579 Y17.855 Z-5.080 F762.000
G3 X15.469 Y18.395 Z-5.080 I-1.343 J-1.349 F1524.000
G1 X15.144 Y18.415 Z-5.080 F1524.000
G1 X12.796 Y18.415 Z-5.080 F1524.000
G3 X12.471 Y14.625 Z-5.080 I-0.092 J-1.901 F1524.000
G1 X12.796 Y14.605 Z-5.080 F1524.000
G1 X15.144 Y14.605 Z-5.080 F1524.000
G3 X16.579 Y17.855 Z-5.080 I0.092 J1.901 F1524.000
G1 X16.579 Y17.855 Z-10.160 F762.000
G3 X15.469 Y18.395 Z-10.160 I-1.343 J-1.349 F1524.000
G1 X15.144 Y18.415 Z-10.160 F1524.000
G1 X12.796 Y18.415 Z-10.160 F1524.000
G3 X12.471 Y14.625 Z-10.160 I-0.092 J-1.901 F1524.000
G1 X12.796 Y14.605 Z-10.160 F1524.000
G1 X15.144 Y14.605 Z-10.160 F1524.000
G3 X16.579 Y17.855 Z-10.160 I0.092 J1.901 F1524.000
G1 X16.579 Y17.855 Z-15.240 F762.000
G3 X15.469 Y18.395 Z-15.240 I-1.343 J-1.349 F1524.000
G1 X15.144 Y18.415 Z-15.240 F1524.000
G1 X12.796 Y18.415 Z-15.240 F1524.000
G3 X12.471 Y14.625 Z-15.240 I-0.092 J-1.901 F1524.000
G1 X12.796 Y14.605 Z-15.240 F1524.000
G1 X15.144 Y14.605 Z-15.240 F1524.000
G3 X16.579 Y17.855 Z-15.240 I0.092 J1.901 F1524.000
G1 X16.579 Y17.855 Z-20.320 F762.000
G3 X15.469 Y18.395 Z-20.320 I-1.343 J-1.349 F1524.000
G1 X15.144 Y18.415 Z-20.320 F1524.000
G1 X12.796 Y18.415 Z-20.320 F1524.000
G3 X12.471 Y14.625 Z-20.320 I-0.092 J-1.901 F1524.000
G1 X12.796 Y14.605 Z-20.320 F1524.000
G1 X15.144 Y14.605 Z-20.320 F1524.000
G3 X16.579 Y17.855 Z-20.320 I0.092 J1.901 F1524.000
G1 X16.579 Y17.855 Z-20.828 F762.000
G3 X15.469 Y18.395 Z-20.828 I-1.343 J-1.349 F1524.000
G1 X15.144 Y18.415 Z-20.828 F1524.000
G1 X12.796 Y18.415 Z-20.828 F1524.000
G3 X12.471 Y14.625 Z-20.828 I-0.092 J-1.901 F1524.000
G1 X12.796 Y14.605 Z-20.828 F1524.000
G1 X15.144 Y14.605 Z-20.828 F1524.000
G3 X16.579 Y17.855 Z-20.828 I0.092 J1.901 F1524.000
G0 Z1.270
(finish operation: Pocket_Shape)
(begin operation: T3: Robynbit)
(machine: not set, mm/min)
(T3: Robynbit)
M6 T3
M3 S0
(finish operation: T3: Robynbit)
(begin operation: Contour)
(machine: not set, mm/min)
(Contour)
(Compensated Tool Path. Diameter: 6.35)
G0 Z1.270
G0 X25.411 Y31.762
G1 X25.411 Y31.762 Z-5.080 F762.000
G2 X28.571 Y24.286 Z-5.080 I-7.636 J-7.634 F1524.000
G1 X28.575 Y7.620 Z-5.080 F1524.000
G2 X17.936 Y-3.171 Z-5.080 I-10.797 J0.005 F1524.000
G1 X0.000 Y-3.175 Z-5.080 F1524.000
G2 X-3.175 Y0.000 Z-5.080 I0.000 J3.175 F1524.000
G1 X-3.175 Y30.130 Z-5.080 F1524.000
G2 X-0.660 Y33.236 Z-5.080 I3.175 J-0.000 F1524.000
G1 X6.960 Y34.856 Z-5.080 F1524.000
G1 X7.620 Y34.925 Z-5.080 F1524.000
G1 X17.780 Y34.925 Z-5.080 F1524.000
G2 X25.411 Y31.762 Z-5.080 I-0.005 J-10.797 F1524.000
G1 X25.411 Y31.762 Z-10.160 F762.000
G2 X28.571 Y24.286 Z-10.160 I-7.636 J-7.634 F1524.000
G1 X28.575 Y7.620 Z-10.160 F1524.000
G2 X17.936 Y-3.171 Z-10.160 I-10.797 J0.005 F1524.000
G1 X0.000 Y-3.175 Z-10.160 F1524.000
G2 X-3.175 Y0.000 Z-10.160 I0.000 J3.175 F1524.000
G1 X-3.175 Y30.130 Z-10.160 F1524.000
G2 X-0.660 Y33.236 Z-10.160 I3.175 J-0.000 F1524.000
G1 X6.960 Y34.856 Z-10.160 F1524.000
G1 X7.620 Y34.925 Z-10.160 F1524.000
G1 X17.780 Y34.925 Z-10.160 F1524.000
G2 X25.411 Y31.762 Z-10.160 I-0.005 J-10.797 F1524.000
G1 X25.411 Y31.762 Z-15.240 F762.000
G2 X28.571 Y24.286 Z-15.240 I-7.636 J-7.634 F1524.000
G1 X28.575 Y7.620 Z-15.240 F1524.000
G2 X17.936 Y-3.171 Z-15.240 I-10.797 J0.005 F1524.000
G1 X0.000 Y-3.175 Z-15.240 F1524.000
G2 X-3.175 Y0.000 Z-15.240 I0.000 J3.175 F1524.000
G1 X-3.175 Y30.130 Z-15.240 F1524.000
G2 X-0.660 Y33.236 Z-15.240 I3.175 J-0.000 F1524.000
G1 X6.960 Y34.856 Z-15.240 F1524.000
G1 X7.620 Y34.925 Z-15.240 F1524.000
G1 X17.780 Y34.925 Z-15.240 F1524.000
G2 X25.411 Y31.762 Z-15.240 I-0.005 J-10.797 F1524.000
G1 X25.411 Y31.762 Z-20.320 F762.000
G2 X28.571 Y24.286 Z-20.320 I-7.636 J-7.634 F1524.000
G1 X28.575 Y7.620 Z-20.320 F1524.000
G2 X17.936 Y-3.171 Z-20.320 I-10.797 J0.005 F1524.000
G1 X0.000 Y-3.175 Z-20.320 F1524.000
G2 X-3.175 Y0.000 Z-20.320 I0.000 J3.175 F1524.000
G1 X-3.175 Y30.130 Z-20.320 F1524.000
G2 X-0.660 Y33.236 Z-20.320 I3.175 J-0.000 F1524.000
G1 X6.960 Y34.856 Z-20.320 F1524.000
G1 X7.620 Y34.925 Z-20.320 F1524.000
G1 X17.780 Y34.925 Z-20.320 F1524.000
G2 X25.411 Y31.762 Z-20.320 I-0.005 J-10.797 F1524.000
G0 Z1.270
(finish operation: Contour)
(begin postamble)
M05
G17 G54 G90 G80 G40
M2
