(Designed by Robyn and Jose Giraldez)
(Exported by FreeCAD)
(Post Processor: linuxcnc_post)
(Output Time:2018-07-31 21:46:24.983000)
(begin preamble)
G17 G54 G40 G49 G80 G90
G21
(begin operation: T3: Robynbit)
(machine: not set, mm/min)
(T3: Robynbit)
M6 T3
M3 S0
(finish operation: T3: Robynbit)
(begin operation: Contour)
(machine: not set, mm/min)
(Contour)
(Compensated Tool Path. Diameter: 6.35)
G0 Z1.270
G0 X32.725 Y14.183
G1 X32.725 Y14.183 Z-2.540 F762.000
G2 X33.655 Y11.938 Z-2.540 I-2.245 J-2.245 F1524.000
G1 X33.655 Y0.000 Z-2.540 F1524.000
G2 X30.480 Y-3.175 Z-2.540 I-3.175 J0.000 F1524.000
G1 X0.000 Y-3.175 Z-2.540 F1524.000
G2 X-3.175 Y0.000 Z-2.540 I0.000 J3.175 F1524.000
G1 X-3.175 Y10.668 Z-2.540 F1524.000
G2 X-0.394 Y13.818 Z-2.540 I3.175 J0.000 F1524.000
G1 X9.766 Y15.088 Z-2.540 F1524.000
G1 X10.160 Y15.113 Z-2.540 F1524.000
G1 X30.480 Y15.113 Z-2.540 F1524.000
G2 X32.725 Y14.183 Z-2.540 I-0.000 J-3.175 F1524.000
G1 X32.725 Y14.183 Z-5.080 F762.000
G2 X33.655 Y11.938 Z-5.080 I-2.245 J-2.245 F1524.000
G1 X33.655 Y0.000 Z-5.080 F1524.000
G2 X30.480 Y-3.175 Z-5.080 I-3.175 J0.000 F1524.000
G1 X0.000 Y-3.175 Z-5.080 F1524.000
G2 X-3.175 Y0.000 Z-5.080 I0.000 J3.175 F1524.000
G1 X-3.175 Y10.668 Z-5.080 F1524.000
G2 X-0.394 Y13.818 Z-5.080 I3.175 J0.000 F1524.000
G1 X9.766 Y15.088 Z-5.080 F1524.000
G1 X10.160 Y15.113 Z-5.080 F1524.000
G1 X30.480 Y15.113 Z-5.080 F1524.000
G2 X32.725 Y14.183 Z-5.080 I-0.000 J-3.175 F1524.000
G1 X32.725 Y14.183 Z-7.620 F762.000
G2 X33.655 Y11.938 Z-7.620 I-2.245 J-2.245 F1524.000
G1 X33.655 Y0.000 Z-7.620 F1524.000
G2 X30.480 Y-3.175 Z-7.620 I-3.175 J0.000 F1524.000
G1 X0.000 Y-3.175 Z-7.620 F1524.000
G2 X-3.175 Y0.000 Z-7.620 I0.000 J3.175 F1524.000
G1 X-3.175 Y10.668 Z-7.620 F1524.000
G2 X-0.394 Y13.818 Z-7.620 I3.175 J0.000 F1524.000
G1 X9.766 Y15.088 Z-7.620 F1524.000
G1 X10.160 Y15.113 Z-7.620 F1524.000
G1 X30.480 Y15.113 Z-7.620 F1524.000
G2 X32.725 Y14.183 Z-7.620 I-0.000 J-3.175 F1524.000
G1 X32.725 Y14.183 Z-10.160 F762.000
G2 X33.655 Y11.938 Z-10.160 I-2.245 J-2.245 F1524.000
G1 X33.655 Y0.000 Z-10.160 F1524.000
G2 X30.480 Y-3.175 Z-10.160 I-3.175 J0.000 F1524.000
G1 X0.000 Y-3.175 Z-10.160 F1524.000
G2 X-3.175 Y0.000 Z-10.160 I0.000 J3.175 F1524.000
G1 X-3.175 Y10.668 Z-10.160 F1524.000
G2 X-0.394 Y13.818 Z-10.160 I3.175 J0.000 F1524.000
G1 X9.766 Y15.088 Z-10.160 F1524.000
G1 X10.160 Y15.113 Z-10.160 F1524.000
G1 X30.480 Y15.113 Z-10.160 F1524.000
G2 X32.725 Y14.183 Z-10.160 I-0.000 J-3.175 F1524.000
G1 X32.725 Y14.183 Z-12.700 F762.000
G2 X33.655 Y11.938 Z-12.700 I-2.245 J-2.245 F1524.000
G1 X33.655 Y0.000 Z-12.700 F1524.000
G2 X30.480 Y-3.175 Z-12.700 I-3.175 J0.000 F1524.000
G1 X0.000 Y-3.175 Z-12.700 F1524.000
G2 X-3.175 Y0.000 Z-12.700 I0.000 J3.175 F1524.000
G1 X-3.175 Y10.668 Z-12.700 F1524.000
G2 X-0.394 Y13.818 Z-12.700 I3.175 J0.000 F1524.000
G1 X9.766 Y15.088 Z-12.700 F1524.000
G1 X10.160 Y15.113 Z-12.700 F1524.000
G1 X30.480 Y15.113 Z-12.700 F1524.000
G2 X32.725 Y14.183 Z-12.700 I-0.000 J-3.175 F1524.000
G1 X32.725 Y14.183 Z-15.240 F762.000
G2 X33.655 Y11.938 Z-15.240 I-2.245 J-2.245 F1524.000
G1 X33.655 Y0.000 Z-15.240 F1524.000
G2 X30.480 Y-3.175 Z-15.240 I-3.175 J0.000 F1524.000
G1 X0.000 Y-3.175 Z-15.240 F1524.000
G2 X-3.175 Y0.000 Z-15.240 I0.000 J3.175 F1524.000
G1 X-3.175 Y10.668 Z-15.240 F1524.000
G2 X-0.394 Y13.818 Z-15.240 I3.175 J0.000 F1524.000
G1 X9.766 Y15.088 Z-15.240 F1524.000
G1 X10.160 Y15.113 Z-15.240 F1524.000
G1 X30.480 Y15.113 Z-15.240 F1524.000
G2 X32.725 Y14.183 Z-15.240 I-0.000 J-3.175 F1524.000
G1 X32.725 Y14.183 Z-17.780 F762.000
G2 X33.655 Y11.938 Z-17.780 I-2.245 J-2.245 F1524.000
G1 X33.655 Y0.000 Z-17.780 F1524.000
G2 X30.480 Y-3.175 Z-17.780 I-3.175 J0.000 F1524.000
G1 X0.000 Y-3.175 Z-17.780 F1524.000
G2 X-3.175 Y0.000 Z-17.780 I0.000 J3.175 F1524.000
G1 X-3.175 Y10.668 Z-17.780 F1524.000
G2 X-0.394 Y13.818 Z-17.780 I3.175 J0.000 F1524.000
G1 X9.766 Y15.088 Z-17.780 F1524.000
G1 X10.160 Y15.113 Z-17.780 F1524.000
G1 X30.480 Y15.113 Z-17.780 F1524.000
G2 X32.725 Y14.183 Z-17.780 I-0.000 J-3.175 F1524.000
G1 X32.725 Y14.183 Z-20.320 F762.000
G2 X33.655 Y11.938 Z-20.320 I-2.245 J-2.245 F1524.000
G1 X33.655 Y0.000 Z-20.320 F1524.000
G2 X30.480 Y-3.175 Z-20.320 I-3.175 J0.000 F1524.000
G1 X0.000 Y-3.175 Z-20.320 F1524.000
G2 X-3.175 Y0.000 Z-20.320 I0.000 J3.175 F1524.000
G1 X-3.175 Y10.668 Z-20.320 F1524.000
G2 X-0.394 Y13.818 Z-20.320 I3.175 J0.000 F1524.000
G1 X9.766 Y15.088 Z-20.320 F1524.000
G1 X10.160 Y15.113 Z-20.320 F1524.000
G1 X30.480 Y15.113 Z-20.320 F1524.000
G2 X32.725 Y14.183 Z-20.320 I-0.000 J-3.175 F1524.000
G0 Z1.270
(finish operation: Contour)
(begin postamble)
M05
G17 G54 G90 G80 G40
M2
